<?xml version="1.0" encoding="UTF-8"?>
<map version="1.10" tiledversion="1.12.2" orientation="orthogonal" renderorder="right-down" width="30" height="60" tilewidth="24" tileheight="24" infinite="0" nextlayerid="5" nextobjectid="1">
 <editorsettings>
  <export target="grocery-map.json" format="json"/>
 </editorsettings>
 <tileset firstgid="1" name="Grocery" tilewidth="24" tileheight="24" tilecount="35" columns="7">
  <image source="grocery_tileset.png" width="180" height="120"/>
 </tileset>
 <layer id="1" name="floor" width="30" height="60">
  <data encoding="csv">
0,0,0,0,0,0,0,0,0,0,0,0,0,0,0,0,0,0,0,0,0,0,0,0,0,0,0,0,0,0,
0,0,0,0,0,0,0,0,0,0,0,0,0,0,0,0,0,0,0,0,0,0,0,0,0,0,0,0,0,0,
0,0,0,0,0,22,22,22,22,22,22,22,22,0,0,0,0,0,0,0,0,0,0,0,0,0,0,0,0,0,
0,0,0,0,0,22,22,22,22,22,22,22,22,0,0,0,0,0,0,0,0,0,0,0,0,0,0,0,0,0,
0,0,0,0,0,22,22,23,22,23,22,22,22,1,1,2,1,1,1,1,1,1,1,1,1,1,1,0,0,0,
0,0,0,0,0,22,23,22,22,22,22,29,22,1,1,1,1,1,1,1,1,1,1,1,11,1,1,0,0,0,
0,0,0,0,0,29,22,22,22,22,22,22,22,0,0,0,0,0,0,1,1,1,1,1,1,3221225474,1,0,0,0,
0,0,0,0,0,0,3,3,0,0,0,0,0,0,0,0,0,0,0,1,1,1,1,1,1,1,1,0,0,0,
0,0,0,0,0,0,3,3,0,0,0,0,0,0,0,0,0,0,0,1,1,1,2,1,1,1,1,0,0,0,
0,0,0,0,0,0,3,3,0,0,0,0,0,0,0,0,0,0,0,1,1,1,1,1,1,1,1,0,0,0,
0,0,0,0,0,0,3,3,0,0,0,0,0,0,0,0,0,0,0,1,1,1,1,1,1,1,1,0,0,0,
0,0,0,0,0,0,3,3,0,0,0,0,0,0,0,0,0,0,0,1,11,1,1,1,1,2,1,0,0,0,
0,0,0,0,0,0,3,3,0,0,0,0,0,0,0,0,0,0,0,1,1,1,1,1,1,1,1,0,0,0,
0,0,0,0,0,0,1,1,0,0,0,0,0,0,0,0,0,0,0,0,0,0,3,3,0,0,0,0,0,0,
0,0,0,1,1,1,1,1,1,1,1,1,1,1,1,0,0,0,0,0,0,0,3,3,0,0,0,0,0,0,
0,0,0,1,1,1,1,2,1,1,1,1,3221225483,1,1,0,0,0,0,0,0,0,22,22,22,29,22,22,22,0,
0,0,0,1,1,1,1,1,1,1,1,1,1,1,1,0,0,0,0,0,0,0,22,22,22,22,22,22,22,0,
0,0,0,1,1,1,1,1,1,1,0,0,0,0,0,0,0,0,0,0,0,0,0,0,0,0,0,0,3,0,
0,0,0,1,1,1,1,1,1,1,0,0,0,0,0,0,0,0,0,0,0,0,0,0,0,0,0,0,3,0,
0,0,0,1,1,1,1,2,1,1,0,0,0,0,0,0,0,0,0,0,0,0,0,0,0,0,0,0,3,0,
0,0,0,1,1,1,1,1,1,1,0,0,0,0,0,0,0,0,0,0,0,0,0,0,0,0,0,0,3,0,
0,0,0,1,1,2,1,1,1,1,22,22,22,22,23,22,22,22,22,22,22,22,22,22,0,0,0,0,3,0,
0,0,0,1,1,1,1,1,1,1,0,0,0,0,0,22,22,22,22,22,22,22,22,22,0,0,0,0,3,0,
0,0,0,1,1,1,1,1,1,1,0,0,0,0,0,22,22,22,22,22,22,22,29,29,0,0,0,0,3,0,
0,0,0,3,0,0,0,0,0,0,0,0,0,0,0,22,22,22,23,22,22,22,22,29,0,0,0,0,3,0,
0,0,0,3,0,0,0,0,0,0,0,0,0,0,0,22,23,22,22,22,22,22,22,22,0,0,0,0,3,0,
0,0,0,3,0,0,0,0,0,0,0,0,0,0,0,22,29,22,22,22,22,22,23,22,0,0,0,0,3,0,
0,0,0,3,0,0,0,0,0,0,0,0,0,0,0,0,0,0,0,3,3,0,0,0,0,0,0,0,3,0,
0,0,0,3,0,0,0,0,0,0,0,0,0,0,0,0,0,0,0,3,3,0,0,0,0,0,0,0,3,0,
0,22,22,29,22,22,22,0,0,0,0,0,0,0,0,0,0,0,0,3,3,0,0,0,0,0,0,0,3,0,
0,22,22,22,22,22,29,0,0,0,0,0,0,0,0,0,0,0,0,3,3,0,0,0,0,0,0,0,3,0,
0,22,22,22,22,22,22,0,0,0,0,0,0,0,0,0,0,0,0,3,3,0,0,0,0,0,0,0,3,0,
0,22,22,23,22,22,22,0,0,0,0,0,0,0,0,0,0,0,0,3,3,0,0,0,0,0,0,0,3,0,
0,3,0,0,0,0,0,0,0,0,0,0,0,0,0,0,0,0,0,1,1,0,0,0,0,0,0,0,3,0,
0,3,0,0,0,0,0,0,0,0,0,0,0,1,1,1,1,1,1,1,1,1,1,1,1,1,0,0,3,0,
0,3,0,0,0,0,0,0,0,0,0,0,0,1,1,1,1,1,1,11,1,1,1,1,1,1,0,0,3,0,
0,3,0,0,0,0,0,0,0,0,0,0,0,1,1,1,1,1,1,1,1,1,1,1,1,1,0,0,3,0,
0,3,0,0,0,0,0,0,0,0,0,0,0,1,1,1,1,1,1,1,1,1,2,1,1,1,0,0,3,0,
0,3,0,0,0,0,0,0,0,0,0,0,0,1,1,1,1,1,2,1,1,1,1,1,1,1,0,0,3,0,
0,1,1,1,1,0,0,0,0,0,0,0,0,1,1,1,1,1,1,1,1,1,1,1,1,1,0,0,3,0,
0,1,1,1,1,0,0,0,0,0,0,0,0,1,2,1,1,1,1,1,1,1,1,1,1,1,0,0,3,0,
0,1,1,1,1,0,0,0,0,0,0,0,0,1,1,1,1,1,1,1,1,1,1,1,1,1,0,0,3,0,
0,1,1,1,1,0,0,0,0,0,0,0,0,1,1,1,1,1,1,1,1,1,1,1,1,1,0,0,3,0,
0,1,1,1,1,0,0,0,0,0,0,0,0,0,0,0,0,0,0,0,0,0,0,0,3,3,0,0,3,0,
0,0,0,0,3,0,0,0,0,0,0,0,0,0,0,0,0,0,0,0,0,0,0,0,3,3,0,0,3,0,
0,0,0,0,3,0,0,0,0,0,0,0,0,0,0,0,0,0,0,0,0,0,0,0,3,3,0,0,3,0,
0,0,0,0,3,0,0,0,0,0,0,0,0,0,0,0,0,0,0,0,0,0,0,0,3,3,0,0,3,0,
0,0,0,0,3,0,0,0,0,0,0,0,0,0,0,0,0,0,0,0,0,0,0,0,3,3,0,0,3,0,
0,0,0,0,22,22,22,22,22,22,22,22,23,22,22,22,0,0,0,0,0,0,0,0,3,3,0,0,3,0,
0,0,0,0,22,22,22,22,22,22,22,22,22,22,22,22,0,0,0,0,0,0,0,0,3,3,0,0,3,0,
0,0,0,0,29,22,22,22,22,22,22,22,22,22,22,23,0,0,0,0,0,0,0,0,1,1,0,0,3,0,
0,0,0,0,22,22,22,22,22,22,23,22,22,22,22,22,0,0,0,0,1,1,1,1,1,1,1,1,1,0,
0,0,0,0,22,22,22,22,22,22,22,22,22,22,22,22,1,1,1,1,1,1,1,1,1,2,1,1,1,0,
0,0,0,0,0,0,1,1,0,0,0,0,0,0,0,0,0,0,0,0,1,1,1,1,1,1,1,1,1,0,
0,0,0,0,0,0,1,1,0,0,0,0,0,0,0,0,0,0,0,0,1,1,11,1,1,1,1,1,1,0,
0,0,0,0,0,0,1,1,0,0,0,0,0,0,0,0,0,0,0,0,1,1,1,1,2,1,11,1,1,0,
0,0,0,1,1,1,1,1,2,1,1,1,1,1,1,0,0,0,0,0,1,1,1,1,1,1,1,1,1,0,
0,0,0,1,1,11,1,1,1,1,1,1,1,1,1,0,0,0,0,0,1,1,1,1,1,1,1,1,1,0,
0,0,0,1,1,1,1,1,1,1,1,1,1,1,1,0,0,0,0,0,1,1,1,1,1,1,1,1,1,0,
0,0,0,0,0,0,0,0,0,0,0,0,0,0,0,0,0,0,0,0,0,0,0,3,3,3,3,0,0,0
</data>
 </layer>
 <layer id="2" name="walls" width="30" height="60">
  <data encoding="csv">
0,0,0,0,2147483658,8,8,8,8,8,8,8,8,10,0,0,0,0,0,0,0,0,0,0,0,0,0,0,0,0,
0,0,0,0,1610612744,15,15,15,15,15,15,15,15,3758096392,0,0,0,0,0,0,0,0,0,0,0,0,0,0,0,0,
0,0,0,0,1610612744,0,0,0,0,0,0,0,0,9,8,8,8,8,8,8,8,8,8,8,8,8,8,10,0,0,
0,0,0,0,1610612744,0,0,0,0,0,0,0,0,15,17,17,16,17,15,17,17,17,15,16,17,15,17,3758096392,0,0,
0,0,0,0,1610612744,0,0,0,0,0,0,0,0,0,0,0,0,0,0,0,0,0,0,0,0,0,0,3758096392,0,0,
0,0,0,0,1610612744,0,0,0,0,0,0,0,0,0,0,0,0,0,0,0,0,0,0,0,0,0,0,3758096392,0,0,
0,0,0,0,1610612744,0,0,0,0,0,0,0,0,1073741833,1073741832,1073741832,1073741832,1073741832,3221225481,0,0,0,0,0,0,0,0,3758096392,0,0,
0,0,0,0,536870922,536870921,0,0,2684354569,1073741832,1073741832,1073741832,1073741832,1073741834,0,0,0,0,1610612744,0,0,0,0,0,0,0,0,3758096392,0,0,
0,0,0,0,0,1610612744,0,0,3758096392,0,0,0,0,0,0,0,0,0,1610612744,0,0,0,0,0,0,0,0,3758096392,0,0,
0,0,0,0,0,1610612744,0,0,3758096392,0,0,0,0,0,0,0,0,0,1610612744,0,0,0,0,0,0,0,0,3758096392,0,0,
0,0,0,0,0,1610612744,0,0,3758096392,0,0,0,0,0,0,0,0,0,1610612744,0,0,0,0,0,0,0,0,3758096392,0,0,
0,0,0,0,0,1610612744,0,0,3758096392,0,0,0,0,0,0,0,0,0,1610612744,0,0,0,0,0,0,0,0,3758096392,0,0,
0,0,2147483658,8,8,2147483657,0,0,9,8,8,8,8,8,8,10,0,0,1610612744,0,0,0,0,0,0,0,0,3758096392,0,0,
0,0,1610612744,15,15,17,0,0,16,16,16,15,17,17,15,3758096392,0,0,536870922,1073741832,1073741832,536870921,0,0,2684354569,1073741832,1073741832,2684354570,0,0,
0,0,1610612744,0,0,0,0,0,0,0,0,0,0,0,0,3758096392,0,0,0,0,0,1610612744,0,0,9,8,8,8,8,10,
0,0,1610612744,0,0,0,0,0,0,0,0,0,0,0,0,3758096392,0,0,0,0,0,1610612744,0,0,0,0,0,0,0,3758096392,
0,0,1610612744,0,0,0,0,0,0,0,0,0,0,0,0,3758096392,0,0,0,0,0,1610612744,0,0,0,0,0,0,0,3758096392,
0,0,1610612744,0,0,0,0,0,0,0,2684354569,1073741832,1073741832,1073741832,1073741832,1073741834,0,0,0,0,0,3221225482,1073741832,1073741832,1073741832,1073741832,1073741832,3221225481,0,3758096392,
0,0,1610612744,0,0,0,0,0,0,0,3758096392,0,0,0,0,0,0,0,0,0,0,0,0,0,0,0,0,1610612744,0,3758096392,
0,0,1610612744,0,0,0,0,0,0,0,9,8,8,8,8,8,8,8,8,8,8,8,8,8,10,0,0,1610612744,0,3758096392,
0,0,1610612744,0,0,0,0,0,0,0,17,17,16,15,15,17,16,17,17,16,15,15,16,16,3758096392,0,0,1610612744,0,3758096392,
0,0,1610612744,0,0,0,0,0,0,0,0,0,0,0,0,0,0,0,0,0,0,0,0,0,3758096392,0,0,1610612744,0,3758096392,
0,0,1610612744,0,0,0,0,0,0,0,2684354569,1073741832,1073741832,1073741832,3221225481,0,0,0,0,0,0,0,0,0,3758096392,0,0,1610612744,0,3758096392,
0,0,1610612744,0,0,0,0,0,0,0,3758096392,0,0,0,1610612744,0,0,0,0,0,0,0,0,0,3758096392,0,0,1610612744,0,3758096392,
0,0,1610612744,0,2684354569,1073741832,1073741832,1073741832,1073741832,1073741832,2684354570,0,0,0,1610612744,0,0,0,0,0,0,0,0,0,3758096392,0,0,1610612744,0,3758096392,
0,0,1610612744,0,3758096392,0,0,0,0,0,0,0,0,0,1610612744,0,0,0,0,0,0,0,0,0,3758096392,0,0,1610612744,0,3758096392,
0,0,1610612744,0,3758096392,0,0,0,0,0,0,0,0,0,1610612744,0,0,0,0,0,0,0,0,0,3758096392,0,0,1610612744,0,3758096392,
0,0,1610612744,0,3758096392,0,0,0,0,0,0,0,0,0,536870922,1073741832,1073741832,1073741832,536870921,0,0,2684354569,1073741832,1073741832,2684354570,0,0,1610612744,0,3758096392,
2147483658,8,2147483657,0,9,8,8,10,0,0,0,0,0,0,0,0,0,0,1610612744,0,0,3758096392,0,0,0,0,0,1610612744,0,3758096392,
1610612744,0,0,0,0,0,0,3758096392,0,0,0,0,0,0,0,0,0,0,1610612744,0,0,3758096392,0,0,0,0,0,1610612744,0,3758096392,
1610612744,0,0,0,0,0,0,3758096392,0,0,0,0,0,0,0,0,0,0,1610612744,0,0,3758096392,0,0,0,0,0,1610612744,0,3758096392,
1610612744,0,0,0,0,0,0,3758096392,0,0,0,0,0,0,0,0,0,0,1610612744,0,0,3758096392,0,0,0,0,0,1610612744,0,3758096392,
1610612744,0,0,0,0,0,0,3758096392,0,0,0,0,2147483658,8,8,8,8,8,2147483657,0,0,9,8,8,8,8,10,1610612744,0,3758096392,
1610612744,0,2684354569,1073741832,1073741832,1073741832,1073741832,1073741834,0,0,0,0,1610612744,17,16,15,15,17,16,0,0,15,15,17,17,15,3758096392,1610612744,0,3758096392,
1610612744,0,3758096392,0,0,0,0,0,0,0,0,0,1610612744,0,0,0,0,0,0,0,0,0,0,0,0,0,3758096392,1610612744,0,3758096392,
1610612744,0,3758096392,0,0,0,0,0,0,0,0,0,1610612744,0,0,0,0,0,0,0,0,0,0,0,0,0,3758096392,1610612744,0,3758096392,
1610612744,0,3758096392,0,0,0,0,0,0,0,0,0,1610612744,0,0,0,0,0,0,0,0,0,0,0,0,0,3758096392,1610612744,0,3758096392,
1610612744,0,3758096392,0,0,0,0,0,0,0,0,0,1610612744,0,0,0,0,0,0,0,0,0,0,0,0,0,3758096392,1610612744,0,3758096392,
1610612744,0,9,8,8,10,0,0,0,0,0,0,1610612744,0,0,0,0,0,0,0,0,0,0,0,0,0,3758096392,1610612744,0,3758096392,
1610612744,0,0,0,0,3758096392,0,0,0,0,0,0,1610612744,0,0,0,0,0,0,0,0,0,0,0,0,0,3758096392,1610612744,0,3758096392,
1610612744,0,0,0,0,3758096392,0,0,0,0,0,0,1610612744,0,0,0,0,0,0,0,0,0,0,0,0,0,3758096392,1610612744,0,3758096392,
1610612744,0,0,0,0,3758096392,0,0,0,0,0,0,1610612744,0,0,0,0,0,0,0,0,0,0,0,0,0,3758096392,1610612744,0,3758096392,
1610612744,0,0,0,0,3758096392,0,0,0,0,0,0,1610612744,0,0,0,0,0,0,0,0,0,0,0,0,0,3758096392,1610612744,0,3758096392,
1610612744,0,0,0,0,3758096392,0,0,0,0,0,0,536870922,1073741832,1073741832,1073741832,1073741832,1073741832,1073741832,1073741832,1073741832,1073741832,1073741832,536870921,0,0,3758096392,1610612744,0,3758096392,
3221225482,1073741832,1073741832,536870921,0,3758096392,0,0,0,0,0,0,0,0,0,0,0,0,0,0,0,0,0,1610612744,0,0,3758096392,1610612744,0,3758096392,
0,0,0,1610612744,0,3758096392,0,0,0,0,0,0,0,0,0,0,0,0,0,0,0,0,0,1610612744,0,0,3758096392,1610612744,0,3758096392,
0,0,0,1610612744,0,3758096393,8,8,8,8,8,8,8,8,8,8,10,0,0,0,0,0,0,1610612744,0,0,3758096392,1610612744,0,3758096392,
0,0,0,1610612744,0,17,16,15,15,17,16,17,16,16,17,15,3758096392,0,0,0,0,0,0,1610612744,0,0,3758096392,1610612744,0,3758096392,
0,0,0,1610612744,0,0,0,0,0,0,0,0,0,0,0,0,3758096392,0,0,0,0,0,0,1610612744,0,0,3758096392,1610612744,0,3758096392,
0,0,0,1610612744,0,0,0,0,0,0,0,0,0,0,0,0,3758096392,0,0,2147483658,8,8,8,2147483657,0,0,9,2147483657,0,3758096392,
0,0,0,1610612744,0,0,0,0,0,0,0,0,0,0,0,0,9,8,8,2147483657,17,15,15,16,0,0,16,17,0,3758096392,
0,0,0,1610612744,0,0,0,0,0,0,0,0,0,0,0,0,16,17,17,15,0,0,0,0,0,0,0,0,0,3758096392,
0,0,0,1610612744,0,0,0,0,0,0,0,0,0,0,0,0,0,0,0,0,0,0,0,0,0,0,0,0,0,3758096392,
0,0,0,536870922,1073741832,536870921,0,0,2684354569,1073741832,1073741832,1073741832,1073741832,1073741832,1073741832,1073741832,1073741832,1073741832,1073741832,536870921,0,0,0,0,0,0,0,0,0,3758096392,
0,0,2147483658,8,8,2147483657,0,0,9,8,8,8,8,8,8,10,0,0,0,1610612744,0,0,0,0,0,0,0,0,0,3758096392,
0,0,1610612744,17,17,15,0,0,16,15,15,16,16,16,16,3758096392,0,0,0,1610612744,0,0,0,0,0,0,0,0,0,3758096392,
0,0,1610612744,0,0,0,0,0,0,0,0,0,0,0,0,3758096392,0,0,0,1610612744,0,0,0,0,0,0,0,0,0,3758096392,
0,0,1610612744,0,0,0,0,0,0,0,0,0,0,0,0,3758096392,0,0,0,1610612744,0,0,0,0,0,0,0,0,0,3758096392,
0,0,1610612744,0,0,0,0,0,0,0,0,0,0,0,0,3758096392,0,0,0,1610612744,0,0,0,0,0,0,0,0,0,3758096392,
0,0,536870922,1073741832,1073741832,1073741832,1073741832,1073741832,1073741832,1073741832,1073741832,1073741832,1073741832,1073741832,1073741832,2684354570,0,0,0,536870922,1073741832,1073741832,536870921,0,0,0,0,2684354569,1073741832,2684354570
</data>
 </layer>
 <layer id="4" name="debris" width="30" height="60">
  <data encoding="csv">
0,0,0,0,0,0,0,0,0,0,0,0,0,0,0,0,0,0,0,0,0,0,0,0,0,0,0,0,0,0,
0,0,0,0,0,0,0,0,0,0,0,0,0,0,0,0,0,0,0,0,0,0,0,0,0,0,0,0,0,0,
0,0,0,0,0,0,0,0,0,0,0,0,0,0,0,0,0,0,0,0,0,0,0,0,0,0,0,0,0,0,
0,0,0,0,0,0,0,0,0,0,0,0,0,0,0,0,0,0,0,0,0,0,0,0,0,0,0,0,0,0,
0,0,0,0,0,0,0,0,0,0,0,0,0,0,0,0,0,0,4,0,0,0,0,0,0,0,0,0,0,0,
0,0,0,0,0,0,0,0,0,5,0,0,0,0,0,0,0,0,0,0,0,0,0,0,0,0,0,0,0,0,
0,0,0,0,0,0,0,0,0,0,0,0,0,0,0,0,0,0,0,0,0,0,0,0,0,4,0,0,0,0,
0,0,0,0,0,0,0,0,0,0,0,0,0,0,0,0,0,0,0,0,0,0,0,0,0,0,0,0,0,0,
0,0,0,0,0,0,0,0,0,0,0,0,0,0,0,0,0,0,0,0,0,0,0,0,0,0,0,0,0,0,
0,0,0,0,0,0,4,0,0,0,0,0,0,0,0,0,0,0,0,0,0,0,0,0,0,0,0,0,0,0,
0,0,0,0,0,0,0,0,0,0,0,0,0,0,0,0,0,0,0,0,0,0,0,0,0,0,0,0,0,0,
0,0,0,0,0,0,0,0,0,0,0,0,0,0,0,0,0,0,0,0,0,0,0,0,0,0,0,0,0,0,
0,0,0,0,0,0,0,0,0,0,0,0,0,0,0,0,0,0,0,0,0,0,0,0,0,0,0,0,0,0,
0,0,0,0,0,0,0,0,0,0,0,0,0,0,0,0,0,0,0,0,0,0,0,0,0,0,0,0,0,0,
0,0,0,0,0,0,0,0,0,0,0,0,0,0,0,0,0,0,0,0,0,0,0,0,0,0,0,0,0,0,
0,0,0,0,4,0,0,0,0,0,0,0,0,0,0,0,0,0,0,0,0,0,0,0,0,0,0,5,0,0,
0,0,0,0,0,0,0,0,0,0,0,0,0,0,0,0,0,0,0,0,0,0,0,0,0,0,0,0,0,0,
0,0,0,0,0,0,0,0,0,0,0,0,0,0,0,0,0,0,0,0,0,0,0,0,0,0,0,0,0,0,
0,0,0,0,0,0,0,0,0,0,0,0,0,0,0,0,0,0,0,0,0,0,0,0,0,0,0,0,0,0,
0,0,0,0,0,0,0,0,0,0,0,0,0,0,0,0,0,0,0,0,0,0,0,0,0,0,0,0,0,0,
0,0,0,0,0,0,0,0,0,0,0,0,0,0,0,0,0,0,0,0,0,0,0,0,0,0,0,0,0,0,
0,0,0,0,0,0,0,0,0,0,0,0,0,0,0,0,0,0,0,0,0,0,0,0,0,0,0,0,0,0,
0,0,0,0,0,0,0,0,0,0,0,0,0,0,0,0,0,0,0,0,0,0,0,0,0,0,0,0,0,0,
0,0,0,0,0,0,0,0,0,0,0,0,0,0,0,0,0,0,0,0,0,0,0,0,0,0,0,0,0,0,
0,0,0,0,0,0,0,0,0,0,0,0,0,0,0,0,0,0,0,0,0,0,0,0,0,0,0,0,0,0,
0,0,0,0,0,0,0,0,0,0,0,0,0,0,0,0,0,0,0,0,0,0,0,0,0,0,0,0,0,0,
0,0,0,0,0,0,0,0,0,0,0,0,0,0,0,0,0,0,0,0,0,0,0,5,0,0,0,0,0,0,
0,0,0,0,0,0,0,0,0,0,0,0,0,0,0,0,0,0,0,0,0,0,0,0,0,0,0,0,0,0,
0,0,0,0,0,0,0,0,0,0,0,0,0,0,0,0,0,0,0,0,0,0,0,0,0,0,0,0,0,0,
0,0,0,0,0,0,0,0,0,0,0,0,0,0,0,0,0,0,0,0,0,0,0,0,0,0,0,0,0,0,
0,0,0,0,0,0,0,0,0,0,0,0,0,0,0,0,0,0,0,0,0,0,0,0,0,0,0,0,0,0,
0,0,0,0,0,0,0,0,0,0,0,0,0,0,0,0,0,0,0,0,0,0,0,0,0,0,0,0,0,0,
0,0,0,0,0,0,0,0,0,0,0,0,0,0,0,0,0,0,0,0,0,0,0,0,0,0,0,0,0,0,
0,0,0,0,0,0,0,0,0,0,0,0,0,0,0,0,0,0,0,0,0,0,0,0,0,0,0,0,0,0,
0,0,0,0,0,0,0,0,0,0,0,0,0,0,0,0,0,0,0,0,0,0,0,0,0,0,0,0,0,0,
0,0,0,0,0,0,0,0,0,0,0,0,0,0,0,0,0,0,0,0,0,0,0,0,0,0,0,0,0,0,
0,0,0,0,0,0,0,0,0,0,0,0,0,0,0,0,0,0,0,0,0,0,0,0,0,0,0,0,0,0,
0,0,0,0,0,0,0,0,0,0,0,0,0,0,0,0,0,0,0,0,0,0,0,4,0,0,0,0,0,0,
0,0,0,0,0,0,0,0,0,0,0,0,0,0,0,0,0,0,0,0,0,0,0,0,0,0,0,0,0,0,
0,0,0,0,0,0,0,0,0,0,0,0,0,0,0,0,0,5,0,0,0,0,0,0,0,0,0,0,0,0,
0,0,0,0,0,0,0,0,0,0,0,0,0,0,0,0,0,0,0,0,0,0,0,0,0,0,0,0,0,0,
0,0,0,5,0,0,0,0,0,0,0,0,0,0,0,0,0,0,0,0,0,0,0,0,0,0,0,0,0,0,
0,0,0,0,0,0,0,0,0,0,0,0,0,5,0,0,0,0,0,0,0,0,0,0,0,0,0,0,0,0,
0,4,0,0,0,0,0,0,0,0,0,0,0,0,0,0,0,0,0,0,0,0,0,0,0,0,0,0,0,0,
0,0,0,0,0,0,0,0,0,0,0,0,0,0,0,0,0,0,0,0,0,0,0,0,0,0,0,0,0,0,
0,0,0,0,0,0,0,0,0,0,0,0,0,0,0,0,0,0,0,0,0,0,0,0,0,4,0,0,0,0,
0,0,0,0,0,0,0,0,0,0,0,0,0,0,0,0,0,0,0,0,0,0,0,0,0,0,0,0,0,0,
0,0,0,0,0,0,0,0,0,0,0,0,0,0,0,0,0,0,0,0,0,0,0,0,0,0,0,0,0,0,
0,0,0,0,0,0,0,0,0,0,0,0,0,0,0,0,0,0,0,0,0,0,0,0,0,0,0,0,0,0,
0,0,0,0,0,0,0,0,0,0,0,0,0,0,0,0,0,0,0,0,0,0,0,0,0,0,0,0,0,0,
0,0,0,0,0,0,0,0,0,0,0,0,0,0,0,0,0,0,0,0,0,0,0,0,0,0,0,0,0,0,
0,0,0,0,0,0,0,0,0,0,0,0,0,0,0,0,0,0,0,0,0,0,0,0,0,0,0,0,0,0,
0,0,0,0,0,0,0,0,0,0,0,0,0,0,0,0,0,0,0,0,0,0,0,0,0,0,0,0,0,0,
0,0,0,0,0,0,0,0,0,0,0,0,0,0,0,0,0,0,0,0,0,0,5,0,0,0,0,0,0,0,
0,0,0,0,0,0,0,0,0,0,0,0,0,0,0,0,0,0,0,0,0,0,0,0,0,0,0,0,0,0,
0,0,0,0,0,0,0,0,0,0,0,0,0,0,0,0,0,0,0,0,0,0,0,0,0,0,0,0,0,0,
0,0,0,0,0,0,0,0,0,0,0,0,0,0,0,0,0,0,0,0,0,0,0,0,0,0,0,0,0,0,
0,0,0,0,0,0,0,0,0,0,0,0,0,0,0,0,0,0,0,0,0,0,0,0,0,5,0,0,0,0,
0,0,0,0,0,0,0,0,0,4,0,0,0,0,0,0,0,0,0,0,0,0,0,0,0,0,0,0,0,0,
0,0,0,0,0,0,0,0,0,0,0,0,0,0,0,0,0,0,0,0,0,0,0,0,0,0,0,0,0,0
</data>
 </layer>
 <layer id="3" name="objects" width="30" height="60">
  <data encoding="csv">
0,0,0,0,0,0,0,0,0,0,0,0,0,0,0,0,0,0,0,0,0,0,0,0,0,0,0,0,0,0,
0,0,0,0,0,0,0,0,0,0,0,0,0,0,0,0,0,0,0,0,0,0,0,0,0,0,0,0,0,0,
0,0,0,0,0,0,0,0,0,0,0,18,18,0,0,0,0,0,0,0,0,0,0,0,0,0,0,0,0,0,
0,0,0,0,0,0,18,18,19,0,0,18,19,0,0,0,0,0,0,0,0,24,25,26,24,25,26,0,0,0,
0,0,0,0,0,0,18,18,19,0,0,0,0,0,0,0,0,0,0,0,0,31,32,33,31,32,33,0,0,0,
0,0,0,0,0,0,0,0,18,0,0,0,0,0,0,0,0,0,0,0,0,0,0,0,0,0,0,0,0,0,
0,0,0,0,0,0,0,0,19,19,19,19,18,0,0,0,0,0,0,0,0,0,0,0,0,0,0,0,0,0,
0,0,0,0,0,0,0,0,0,0,0,0,0,0,0,0,0,0,0,0,0,0,0,0,0,0,0,0,0,0,
0,0,0,0,0,0,0,0,0,0,0,0,0,0,0,0,0,0,0,6,0,6,0,0,6,0,6,0,0,0,
0,0,0,0,0,0,0,0,0,0,0,0,0,0,0,0,0,0,0,13,0,13,0,0,13,0,13,0,0,0,
0,0,0,0,0,0,0,0,0,0,0,0,0,0,0,0,0,0,0,20,0,20,0,0,20,0,20,0,0,0,
0,0,0,0,0,0,0,0,0,0,0,0,0,0,0,0,0,0,0,27,0,27,0,0,27,0,27,0,0,0,
0,0,0,0,0,0,0,0,0,0,0,0,0,0,0,0,0,0,0,34,0,34,0,0,34,0,34,0,0,0,
0,0,0,24,25,26,0,0,24,25,26,24,25,26,0,0,0,0,0,0,0,0,0,0,0,0,0,0,0,0,
0,0,0,31,32,33,0,0,31,32,33,31,32,33,0,0,0,0,0,0,0,0,0,0,0,0,0,0,0,0,
0,0,0,0,0,0,0,0,0,0,0,0,0,0,0,0,0,0,0,0,0,0,0,0,0,0,0,0,0,0,
0,0,0,24,25,26,0,0,0,0,0,0,0,0,0,0,0,0,0,0,0,0,0,0,0,0,0,0,0,0,
0,0,0,31,32,33,0,0,0,0,0,0,0,0,0,0,0,0,0,0,0,0,0,0,0,0,0,0,0,0,
0,0,0,0,0,0,0,0,0,0,0,0,0,0,0,0,0,0,0,0,0,0,0,0,0,0,0,0,0,0,
0,0,0,24,25,26,0,0,0,0,0,0,0,0,0,0,0,0,0,0,0,0,0,0,0,0,0,0,0,0,
0,0,0,31,32,33,0,0,0,0,0,0,0,0,0,0,0,0,0,0,0,0,0,0,0,0,0,0,0,0,
0,0,0,0,0,0,0,0,0,0,0,0,0,0,0,0,18,18,19,19,18,19,19,18,0,0,0,0,0,0,
0,0,0,0,24,25,26,0,0,0,0,0,0,0,0,0,18,19,18,18,18,19,18,19,0,0,0,0,0,0,
0,0,0,0,31,32,33,0,0,0,0,0,0,0,0,0,18,0,0,0,0,0,0,0,0,0,0,0,0,0,
0,0,0,0,0,0,0,0,0,0,0,0,0,0,0,0,18,0,18,18,18,18,19,0,0,0,0,0,0,0,
0,0,0,0,0,0,0,0,0,0,0,0,0,0,0,0,18,0,18,0,0,0,0,0,0,0,0,0,0,0,
0,0,0,0,0,0,0,0,0,0,0,0,0,0,1610612744,0,0,0,19,0,0,0,0,0,0,0,0,0,0,0,
0,0,0,0,0,0,0,0,0,0,0,0,0,0,0,0,0,0,0,0,0,0,0,0,0,0,0,0,0,0,
0,0,0,0,0,0,0,0,0,0,0,0,0,0,0,0,0,0,0,0,0,0,0,0,0,0,0,0,0,0,
0,0,0,0,0,0,0,0,0,0,0,0,0,0,0,0,0,0,0,0,0,0,0,0,0,0,0,0,0,0,
0,0,19,0,0,0,0,0,0,0,0,0,0,0,0,0,0,0,0,0,0,0,0,0,0,0,0,0,0,0,
0,0,0,0,0,18,0,0,0,0,0,0,0,0,0,0,0,0,0,0,0,0,0,0,0,0,0,0,0,0,
0,0,0,0,0,0,0,0,0,0,0,0,0,0,0,0,0,0,0,0,0,0,0,0,0,0,0,0,0,0,
0,0,0,0,0,0,0,0,0,0,0,0,0,24,25,26,24,25,26,0,0,24,25,26,0,0,0,0,0,0,
0,0,0,0,0,0,0,0,0,0,0,0,0,31,32,33,31,32,33,0,0,31,32,33,19,6,0,0,0,0,
0,0,0,0,0,0,0,0,0,0,0,0,0,19,0,0,0,0,0,0,0,27,0,0,0,13,0,0,0,0,
0,0,0,0,0,0,0,0,0,0,0,0,0,0,0,0,0,0,0,0,0,20,0,0,0,20,0,0,0,0,
0,0,0,0,0,0,0,0,0,0,0,0,0,0,0,3758096411,3758096397,536870925,3758096404,3758096397,536870925,34,0,0,0,27,0,0,0,0,
0,0,0,0,0,0,0,0,0,0,0,0,0,0,0,27,0,0,0,0,0,0,0,0,0,34,0,0,0,0,
0,0,0,0,18,0,0,0,0,0,0,0,0,0,0,2147483661,0,0,0,0,0,0,0,0,0,0,0,0,0,0,
0,0,0,0,0,0,0,0,0,0,0,0,0,0,0,20,1610612756,536870932,1610612756,536870925,1610612763,1610612763,34,0,0,0,0,0,0,0,
0,0,0,0,0,0,0,0,0,0,0,0,0,0,0,0,0,0,0,0,0,0,0,0,0,0,0,0,0,0,
0,0,0,0,0,0,0,0,0,0,0,0,0,0,0,0,0,0,0,0,0,0,0,0,0,0,0,0,0,0,
0,0,0,0,0,0,0,0,0,0,0,0,0,0,0,0,0,0,0,0,0,0,0,0,0,0,0,0,0,0,
0,0,0,0,0,0,0,0,0,0,0,0,0,0,0,0,0,0,0,0,0,0,0,0,0,0,0,0,0,0,
0,0,0,0,0,0,0,0,0,0,0,0,0,0,0,0,0,0,0,0,0,0,0,0,0,0,0,0,0,0,
0,0,0,0,0,0,0,0,0,0,0,0,0,0,0,0,0,0,0,0,0,0,0,0,0,0,0,0,0,0,
0,0,0,0,0,0,0,0,0,0,0,0,0,0,0,0,0,0,0,0,0,0,0,0,0,0,0,0,0,0,
0,0,0,0,0,0,0,0,0,0,0,0,0,0,0,0,0,0,0,0,0,0,0,0,0,0,0,0,0,0,
0,0,0,0,0,19,18,18,18,18,18,18,18,18,18,0,0,0,0,0,0,0,0,0,0,0,0,0,0,0,
0,0,0,0,0,19,18,18,18,0,0,0,0,0,0,0,0,0,0,0,0,24,25,26,0,0,0,0,0,0,
0,0,0,0,0,2147483666,2147483666,2147483666,19,0,0,18,18,18,18,18,0,0,0,0,0,31,32,33,0,0,6,0,0,0,
0,0,0,0,0,0,0,0,19,0,0,0,0,0,0,0,0,0,0,0,0,0,0,0,0,0,13,0,13,0,
0,0,0,0,0,0,0,0,0,0,0,0,0,0,0,0,0,0,0,0,0,0,0,0,0,0,2147483661,0,2147483668,0,
0,0,0,0,0,0,0,0,0,0,0,0,0,0,0,0,0,0,0,0,0,7,0,0,0,0,20,0,13,0,
0,0,0,24,25,26,0,0,0,24,25,26,24,25,26,0,0,0,0,0,0,14,0,0,0,0,34,0,34,0,
0,0,0,31,32,33,0,0,0,31,32,33,31,32,33,0,0,0,0,0,0,0,0,0,0,0,0,0,0,0,
0,0,0,0,0,0,0,0,0,0,0,0,0,0,0,0,0,0,0,0,0,7,0,0,0,0,0,18,18,0,
0,0,0,0,19,0,0,0,0,0,0,0,18,0,0,0,0,0,0,0,0,14,0,0,0,0,0,18,18,0,
0,0,0,0,0,0,0,0,0,0,0,0,0,0,0,0,0,0,0,0,0,0,0,0,0,0,0,0,0,0
</data>
 </layer>
</map>
