<?xml version="1.0" encoding="UTF-8"?>
<map version="1.10" tiledversion="1.12.2" orientation="orthogonal" renderorder="right-down" width="30" height="60" tilewidth="24" tileheight="24" infinite="0" nextlayerid="5" nextobjectid="1">
 <tileset firstgid="1" name="arcade" tilewidth="24" tileheight="24" tilecount="30" columns="6">
  <image source="arcade_tileset.PNG" width="144" height="120"/>
 </tileset>
 <layer id="1" name="floor" width="30" height="60">
  <data encoding="csv">
0,0,0,0,0,0,0,0,0,0,0,0,0,0,0,0,0,0,0,0,0,0,0,0,0,0,0,0,0,0,
0,0,0,0,0,0,0,0,0,0,0,0,0,0,0,0,0,0,0,0,0,0,0,0,0,0,0,0,0,0,
0,0,0,0,0,0,0,0,0,0,0,0,0,0,0,0,0,0,0,0,0,0,0,0,0,0,0,0,0,0,
0,0,0,0,0,0,0,0,0,0,0,0,0,0,0,0,0,0,0,0,0,0,0,0,0,0,0,0,0,0,
0,0,0,2,2,2,2,1,2,1,0,0,0,0,0,2,2,2,1,2,1,1,0,0,0,0,0,0,0,0,
0,0,0,2,1,1,2,2,2,2,0,0,0,0,0,1,1,1,2,2,2,1,0,0,0,0,0,0,0,0,
0,0,0,2,2,2,1,1,1,1,2,2,2,2,2,1,1,2,1,2,1,1,0,0,0,0,0,0,0,0,
0,0,0,1,2,2,1,1,2,1,2,2,2,2,2,1,2,1,2,2,1,1,0,0,0,0,0,0,0,0,
0,0,0,2,1,1,1,2,2,2,0,0,0,0,0,2,1,2,1,1,1,1,0,0,0,0,0,0,0,0,
0,0,0,1,2,2,1,2,1,2,0,0,0,0,0,1,2,2,2,1,1,1,0,0,0,0,0,0,0,0,
0,0,0,2,1,1,2,1,1,2,0,0,0,0,0,1,1,1,2,2,2,2,0,0,0,0,0,0,0,0,
0,0,0,0,0,0,0,0,0,0,0,0,0,0,0,0,0,0,0,0,3,0,0,0,0,0,0,0,0,0,
0,0,0,0,0,0,0,0,0,0,0,0,0,0,0,0,0,0,0,0,3,0,0,0,0,0,0,0,0,0,
0,0,0,0,0,0,0,0,0,0,0,0,0,0,0,0,0,0,0,0,3,0,0,0,0,0,0,0,0,0,
0,0,0,0,0,0,0,0,0,0,0,0,0,0,0,0,0,0,0,0,3,0,0,0,0,0,0,0,0,0,
0,0,0,0,0,0,0,0,0,0,0,0,0,0,0,0,0,0,0,1,2,2,1,1,2,1,2,0,0,0,
0,0,0,0,0,1,1,2,1,1,2,0,0,0,0,0,0,0,0,2,1,1,1,2,2,2,2,0,0,0,
0,0,0,0,0,2,2,2,2,2,2,1,2,1,1,2,2,2,2,1,1,1,1,1,1,1,1,0,0,0,
0,0,0,0,0,1,1,1,2,1,1,2,2,2,1,1,2,1,1,2,2,1,1,2,1,1,1,0,0,0,
0,0,0,0,0,2,1,2,2,1,2,0,0,0,0,0,0,0,0,2,2,1,2,2,1,2,2,0,0,0,
0,0,0,0,0,1,2,2,1,1,2,0,0,0,0,0,0,0,0,2,2,2,1,2,1,1,1,0,0,0,
0,0,0,0,0,0,3,3,0,0,0,0,0,0,0,0,0,0,0,1,2,1,1,2,1,2,2,0,0,0,
0,0,0,0,0,0,3,3,0,0,0,0,0,0,0,0,0,0,0,0,0,0,3,0,0,0,0,0,0,0,
0,0,0,0,0,0,3,3,0,0,0,0,0,0,0,0,0,0,0,0,0,0,3,0,0,0,0,0,0,0,
0,0,0,0,0,0,3,3,0,0,0,0,0,0,0,0,0,0,0,0,0,0,3,0,0,0,0,0,0,0,
0,0,2,2,2,1,1,2,2,2,0,0,0,0,0,0,0,1,2,2,2,1,2,2,0,0,0,0,0,0,
0,0,2,1,2,1,1,2,1,2,0,0,0,0,0,0,0,1,2,1,1,2,2,1,0,0,0,0,0,0,
0,0,1,1,1,2,2,1,2,2,0,0,0,0,0,0,0,1,2,1,2,1,2,2,0,0,0,0,0,0,
0,0,1,1,1,1,1,1,1,1,0,0,0,0,0,0,0,1,1,1,1,1,1,2,0,0,0,0,0,0,
0,0,0,0,0,0,0,0,0,0,0,0,0,0,0,0,0,0,0,3,3,0,0,0,0,0,0,0,0,0,
0,0,0,0,0,0,0,0,0,0,0,0,0,0,0,0,0,0,0,3,3,0,0,0,0,0,0,0,0,0,
0,0,0,0,0,0,0,0,0,0,0,0,0,0,0,0,0,0,0,3,3,0,0,0,0,0,0,0,0,0,
0,0,0,0,0,0,0,0,2,2,1,1,2,2,1,1,1,2,2,1,1,1,2,2,0,0,0,0,0,0,
0,0,0,0,0,0,0,0,1,1,1,1,1,1,2,1,2,2,1,1,1,2,1,2,0,0,0,0,0,0,
0,0,0,0,0,0,0,0,1,2,1,1,1,2,1,2,1,2,1,2,1,1,2,1,0,0,0,0,0,0,
0,0,0,0,0,0,0,0,2,2,2,2,1,1,2,2,2,1,2,1,2,1,1,2,0,0,0,0,0,0,
0,0,0,0,0,0,0,0,2,1,2,1,1,2,2,1,2,1,1,2,2,1,1,1,0,0,0,0,0,0,
0,0,0,0,0,0,0,0,2,2,2,1,2,1,2,1,1,2,1,2,2,1,2,1,0,0,0,0,0,0,
0,0,0,0,0,0,0,0,2,2,2,2,1,2,1,1,1,2,1,1,1,2,2,2,0,0,0,0,0,0,
0,0,0,0,0,0,0,0,0,0,3,3,0,0,0,0,0,0,0,0,0,0,0,0,0,0,0,0,0,0,
0,0,0,0,0,0,0,0,0,0,3,3,0,0,0,0,0,0,0,0,0,0,0,0,0,0,0,0,0,0,
0,0,0,0,0,0,0,0,0,0,3,3,0,0,0,0,0,0,0,0,0,0,0,0,0,0,0,0,0,0,
0,0,0,0,1,2,1,2,1,2,2,1,1,1,0,0,0,0,0,0,0,2,2,2,1,2,1,2,0,0,
0,0,0,0,1,1,2,2,2,1,1,1,2,1,0,0,0,0,0,0,0,2,2,2,2,1,1,1,0,0,
0,0,0,0,2,2,1,1,2,1,2,1,1,2,0,0,0,0,0,0,0,2,1,2,1,2,2,1,0,0,
0,0,0,0,2,1,1,1,1,1,2,2,1,2,0,0,0,0,0,0,0,1,2,1,2,1,1,2,0,0,
0,0,0,0,2,1,2,2,1,2,1,2,1,1,0,0,0,0,0,0,0,1,2,2,1,2,1,1,0,0,
0,0,0,0,2,1,2,1,2,1,2,2,2,1,0,0,0,0,0,0,0,1,1,1,1,2,2,2,0,0,
0,0,0,0,0,0,3,3,0,0,0,0,0,0,0,0,0,0,0,0,0,2,2,2,2,1,2,1,0,0,
0,0,0,0,0,0,3,3,0,0,0,0,0,0,0,0,0,0,0,0,0,0,3,0,0,0,0,0,0,0,
0,0,0,0,0,0,3,3,0,0,0,0,0,0,0,0,0,0,0,0,0,0,3,0,0,0,0,0,0,0,
0,0,0,0,0,0,3,3,0,0,0,0,0,0,0,0,0,0,0,0,0,0,3,0,0,0,0,0,0,0,
0,0,0,0,0,0,3,3,0,0,0,0,0,0,0,0,0,0,0,0,0,0,3,0,0,0,0,0,0,0,
0,0,0,2,2,1,2,2,1,2,2,0,0,0,0,1,1,1,1,2,1,2,1,2,0,0,0,0,0,0,
0,0,0,2,1,2,1,1,1,2,1,0,0,0,0,1,2,2,1,1,2,1,2,1,0,0,0,0,0,0,
0,0,0,2,2,2,1,1,2,1,1,0,0,0,0,2,1,1,2,1,1,1,1,1,0,0,0,0,0,0,
0,0,0,1,2,1,1,1,1,2,1,0,0,0,0,1,1,2,1,2,2,2,1,2,0,0,0,0,0,0,
0,0,0,0,0,0,0,0,0,0,0,0,0,0,0,1,2,1,2,1,1,1,1,2,0,0,0,0,0,0,
0,0,0,0,0,0,0,0,0,0,0,0,0,0,0,1,2,2,1,1,1,2,1,2,0,0,0,0,0,0,
0,0,0,0,0,0,0,0,0,0,0,0,0,0,0,0,0,0,0,0,0,0,0,0,0,0,0,0,0,0
</data>
 </layer>
 <layer id="2" name="walls" width="30" height="60">
  <data encoding="csv">
0,0,0,0,0,0,0,0,0,0,0,0,0,0,0,0,0,0,0,0,0,0,0,0,0,0,0,0,0,0,
0,0,0,0,0,0,0,0,0,0,0,0,0,0,0,0,0,0,0,0,0,0,0,0,0,0,0,0,0,0,
0,0,2147483657,7,7,7,7,7,7,7,9,0,0,0,2147483657,7,7,7,7,7,7,7,9,0,0,0,0,0,0,0,
0,0,536870919,15,13,25,13,14,14,13,2684354567,0,0,0,536870919,15,15,14,27,15,14,15,2684354567,0,0,0,0,0,0,0,
0,0,536870919,0,0,0,0,0,0,0,8,7,7,7,1610612744,0,0,0,0,0,0,0,2684354567,0,0,0,0,0,0,0,
0,0,536870919,0,0,0,0,0,0,0,14,20,21,14,14,0,0,0,0,0,0,0,2684354567,0,0,0,0,0,0,0,
0,0,536870919,0,0,0,0,0,0,0,0,0,0,0,0,0,0,0,0,0,0,0,2684354567,0,0,0,0,0,0,0,
0,0,536870919,0,0,0,0,0,0,0,0,0,0,0,0,0,0,0,0,0,0,0,2684354567,0,0,0,0,0,0,0,
0,0,536870919,0,0,0,0,0,0,0,1073741832,1073741831,1073741831,1073741831,3221225480,0,0,0,0,0,0,0,2684354567,0,0,0,0,0,0,0,
0,0,536870919,0,0,0,0,0,0,0,2684354567,0,0,0,536870919,0,0,0,0,0,0,0,2684354567,0,0,0,0,0,0,0,
0,0,536870919,0,0,0,0,0,0,0,2684354567,0,0,0,536870919,0,0,0,0,0,0,0,2684354567,0,0,0,0,0,0,0,
0,0,3221225481,1073741831,1073741831,1073741831,1073741831,1073741831,1073741831,1073741831,1073741833,0,0,0,3221225481,1073741831,1073741831,1073741831,1073741831,3221225480,0,1073741832,1073741833,0,0,0,0,0,0,0,
0,0,0,0,0,0,0,0,0,0,0,0,0,0,0,0,0,0,0,1610612746,0,3758096394,0,0,0,0,0,0,0,0,
0,0,0,0,0,0,0,0,0,0,0,0,0,0,0,0,0,0,2147483657,2147483656,0,8,7,7,7,7,7,9,0,0,
0,0,0,0,2147483657,7,7,7,7,7,7,9,0,0,0,0,0,0,536870919,14,0,15,14,14,20,15,15,2684354567,0,0,
0,0,0,0,536870919,14,13,19,15,15,14,8,7,7,7,7,7,7,1610612744,0,0,0,0,0,0,0,0,2684354567,0,0,
0,0,0,0,536870919,0,0,0,0,0,0,13,25,14,21,13,14,15,15,0,0,0,0,0,0,0,0,2684354567,0,0,
0,0,0,0,536870919,0,0,0,0,0,0,0,0,0,0,0,0,0,0,0,0,0,0,0,0,0,0,2684354567,0,0,
0,0,0,0,536870919,0,0,0,0,0,0,0,0,0,0,0,0,0,0,0,0,0,0,0,0,0,0,2684354567,0,0,
0,0,0,0,536870919,0,0,0,0,0,0,2684354568,1073741831,1073741831,1073741831,1073741831,1073741831,1073741831,3221225480,0,0,0,0,0,0,0,0,2684354567,0,0,
0,0,0,0,536870919,0,0,0,0,0,0,2684354567,0,0,0,0,0,0,536870919,0,0,0,0,0,0,0,0,2684354567,0,0,
0,0,0,0,3221225481,3221225480,0,0,1073741832,1073741831,1073741831,1073741833,0,0,0,0,0,0,536870919,0,0,0,0,0,0,0,0,2684354567,0,0,
0,0,0,0,0,536870919,0,0,2684354567,0,0,0,0,0,0,0,0,0,3221225481,1073741831,1073741831,3221225480,0,1073741832,1073741831,1073741831,1073741831,1073741833,0,0,
0,2147483657,7,7,7,2147483656,0,0,8,7,9,0,0,0,0,0,2147483657,7,7,7,7,2147483656,0,8,9,0,0,0,0,0,
0,536870919,19,15,15,20,0,0,13,13,2684354567,0,0,0,0,0,536870919,13,15,13,21,13,0,13,2684354567,0,0,0,0,0,
0,536870919,0,0,0,0,0,0,0,0,2684354567,0,0,0,0,0,536870919,0,0,0,0,0,0,0,2684354567,0,0,0,0,0,
0,536870919,0,0,0,0,0,0,0,0,2684354567,0,0,0,0,0,536870919,0,0,0,0,0,0,0,2684354567,0,0,0,0,0,
0,536870919,0,0,0,0,0,0,0,0,2684354567,0,0,0,0,0,536870919,0,0,0,0,0,0,0,2684354567,0,0,0,0,0,
0,536870919,0,0,0,0,0,0,0,0,2684354567,0,0,0,0,0,536870919,0,0,0,0,0,0,0,2684354567,0,0,0,0,0,
0,3221225481,1073741831,1073741831,1073741831,1073741831,1073741831,1073741831,1073741831,1073741831,1073741833,0,0,0,0,0,3221225481,1073741831,3221225480,0,0,1073741832,1073741831,1073741831,2684354569,0,0,0,0,0,
0,0,0,0,0,0,0,2147483657,7,7,7,7,7,7,7,7,7,7,2147483656,0,0,8,7,7,9,0,0,0,0,0,
0,0,0,0,0,0,0,536870919,13,14,13,26,19,15,14,21,15,13,14,0,0,13,25,14,2684354567,0,0,0,0,0,
0,0,0,0,0,0,0,536870919,0,0,0,0,0,0,0,0,0,0,0,0,0,0,0,0,2684354567,0,0,0,0,0,
0,0,0,0,0,0,0,536870919,0,0,0,0,0,0,0,0,0,0,0,0,0,0,0,0,2684354567,0,0,0,0,0,
0,0,0,0,0,0,0,536870919,0,0,0,0,0,0,0,0,0,0,0,0,0,0,0,0,2684354567,0,0,0,0,0,
0,0,0,0,0,0,0,536870919,0,0,0,0,0,0,0,0,0,0,0,0,0,0,0,0,2684354567,0,0,0,0,0,
0,0,0,0,0,0,0,536870919,0,0,0,0,0,0,0,0,0,0,0,0,0,0,0,0,2684354567,0,0,0,0,0,
0,0,0,0,0,0,0,536870919,0,0,0,0,0,0,0,0,0,0,0,0,0,0,0,0,2684354567,0,0,0,0,0,
0,0,0,0,0,0,0,536870919,0,0,0,0,0,0,0,0,0,0,0,0,0,0,0,0,2684354567,0,0,0,0,0,
0,0,0,0,0,0,0,3221225481,1073741831,3221225480,0,0,1073741832,1073741831,1073741831,1073741831,1073741831,1073741831,1073741831,1073741831,1073741831,1073741831,1073741831,1073741831,1073741833,0,0,0,0,0,
0,0,0,2147483657,7,7,7,7,7,2147483656,0,0,8,7,9,0,0,0,0,0,2147483657,7,7,7,7,7,7,7,9,0,
0,0,0,536870919,14,19,14,15,14,15,0,0,26,15,2684354567,0,0,0,0,0,536870919,15,13,21,14,14,25,14,2684354567,0,
0,0,0,536870919,0,0,0,0,0,0,0,0,0,0,2684354567,0,0,0,0,0,536870919,0,0,0,0,0,0,0,2684354567,0,
0,0,0,536870919,0,0,0,0,0,0,0,0,0,0,2684354567,0,0,0,0,0,536870919,0,0,0,0,0,0,0,2684354567,0,
0,0,0,536870919,0,0,0,0,0,0,0,0,0,0,2684354567,0,0,0,0,0,536870919,0,0,0,0,0,0,0,2684354567,0,
0,0,0,536870919,0,0,0,0,0,0,0,0,0,0,2684354567,0,0,0,0,0,536870919,0,0,0,0,0,0,0,2684354567,0,
0,0,0,536870919,0,0,0,0,0,0,0,0,0,0,2684354567,0,0,0,0,0,536870919,0,0,0,0,0,0,0,2684354567,0,
0,0,0,536870919,0,0,0,0,0,0,0,0,0,0,2684354567,0,0,0,0,0,536870919,0,0,0,0,0,0,0,2684354567,0,
0,0,0,3221225481,1073741831,3221225480,0,0,1073741832,1073741831,1073741831,1073741831,1073741831,1073741831,1073741833,0,0,0,0,0,536870919,0,0,0,0,0,0,0,2684354567,0,
0,0,0,0,0,536870919,0,0,2684354567,0,0,0,0,0,0,0,0,0,0,0,3221225481,3221225480,0,1073741832,1073741831,1073741831,1073741831,1073741831,1073741833,0,
0,0,0,0,0,536870919,0,0,2684354567,0,0,0,0,0,0,0,0,0,0,0,0,0,0,0,0,0,0,0,0,0,
0,0,2147483657,7,7,2147483656,0,0,8,7,7,9,0,0,2147483657,7,7,7,7,7,7,2147483656,0,8,9,0,0,0,0,0,
0,0,536870919,13,27,13,0,0,14,19,13,2684354567,0,0,536870919,14,14,26,14,15,20,15,0,15,2684354567,0,0,0,0,0,
0,0,536870919,0,0,0,0,0,0,0,0,8,10,10,2147483656,0,0,0,0,0,0,0,0,0,2684354567,0,0,0,0,0,
0,0,536870919,0,0,0,0,0,0,0,2,2,2,2,2,0,0,0,0,0,0,0,0,0,2684354567,0,0,0,0,0,
0,0,536870919,0,0,0,0,0,0,0,2,2,2,2,2,2,0,0,0,0,0,0,0,0,2684354567,0,0,0,0,0,
0,0,536870919,0,0,0,0,0,0,0,0,1073741832,1073741834,1073741834,3221225480,0,0,0,0,0,0,0,0,0,2684354567,0,0,0,0,0,
0,0,3221225481,1073741831,1073741831,1073741831,1073741831,1073741831,1073741831,1073741831,1073741831,1073741833,0,0,536870919,0,0,0,0,0,0,0,0,0,2684354567,0,0,0,0,0,
0,0,0,0,0,0,0,0,0,0,0,0,0,0,536870919,0,0,0,0,0,0,0,0,0,2684354567,0,0,0,0,0,
0,0,0,0,0,0,0,0,0,0,0,0,0,0,3221225481,1073741831,1073741831,1073741831,3221225480,3,3,1073741832,1073741831,1073741831,1073741833,0,0,0,0,0
</data>
 </layer>
 <layer id="3" name="objects" width="30" height="60">
  <data encoding="csv">
0,0,0,0,0,0,0,0,0,0,0,0,0,0,0,0,0,0,0,0,0,0,0,0,0,0,0,0,0,0,
0,0,0,0,0,0,0,0,0,0,0,0,0,0,0,0,0,0,0,0,0,0,0,0,0,0,0,0,0,0,
0,0,0,0,0,0,0,0,0,0,0,0,0,0,0,0,0,0,0,0,0,0,0,0,0,0,0,0,0,0,
0,0,0,0,0,0,0,22,23,24,0,0,0,0,0,22,23,24,0,22,23,24,0,0,0,0,0,0,0,0,
0,0,0,0,0,0,0,28,29,30,0,0,0,0,0,28,29,30,0,28,29,30,0,0,0,0,0,0,0,0,
0,0,0,23,0,0,0,0,0,0,0,0,0,0,0,0,0,0,0,0,0,0,0,0,0,0,0,0,0,0,
0,0,0,29,0,0,0,0,0,0,0,0,0,0,0,0,0,0,0,0,0,0,0,0,0,0,0,0,0,0,
0,0,0,0,0,0,0,0,0,0,0,0,0,0,0,0,0,0,0,0,0,0,0,0,0,0,0,0,0,0,
0,0,0,24,22,0,0,0,0,0,0,0,0,0,0,0,0,0,0,0,0,0,0,0,0,0,0,0,0,0,
0,0,0,30,28,0,0,0,0,0,0,0,0,0,0,0,0,0,0,0,0,0,0,0,0,0,0,0,0,0,
0,0,0,0,0,0,0,0,0,0,0,0,0,0,0,0,0,0,0,0,0,0,0,0,0,0,0,0,0,0,
0,0,0,0,0,0,0,0,0,0,0,0,0,0,0,0,0,0,0,0,0,0,0,0,0,0,0,0,0,0,
0,0,0,0,0,0,0,0,0,0,0,0,0,0,0,0,0,0,0,0,0,0,0,0,0,0,0,0,0,0,
0,0,0,0,0,0,0,0,0,0,0,0,0,0,0,0,0,0,0,0,0,0,0,0,0,0,0,0,0,0,
0,0,0,0,0,0,0,0,0,0,0,0,0,0,0,0,0,0,0,0,0,0,0,0,0,0,0,0,0,0,
0,0,0,0,0,0,0,0,0,0,0,0,0,0,0,0,0,0,0,0,0,0,0,0,0,0,0,0,0,0,
0,0,0,0,0,0,0,0,0,0,0,0,0,0,0,0,0,0,0,0,0,0,23,24,22,23,24,0,0,0,
0,0,0,0,0,22,23,0,0,0,0,0,0,0,0,0,0,0,0,0,0,0,29,30,28,29,30,0,0,0,
0,0,0,0,0,28,29,0,0,0,0,0,0,0,0,0,0,0,0,0,0,0,0,0,0,0,0,0,0,0,
0,0,0,0,0,0,0,0,0,0,0,0,0,0,0,0,0,0,0,0,0,0,23,24,22,23,24,0,0,0,
0,0,0,0,0,0,0,0,0,0,0,0,0,0,0,0,0,0,0,0,0,0,29,30,28,29,30,0,0,0,
0,0,0,0,0,0,0,0,0,0,0,0,0,0,0,0,0,0,0,0,0,0,0,0,0,0,0,0,0,0,
0,0,0,0,0,0,0,0,0,0,0,0,0,0,0,0,0,0,0,0,0,0,0,0,0,0,0,0,0,0,
0,0,0,0,0,0,0,0,0,0,0,0,0,0,0,0,0,0,0,0,0,0,0,0,0,0,0,0,0,0,
0,0,0,0,0,0,0,0,22,0,0,0,0,0,0,0,0,0,24,0,0,0,0,0,0,0,0,0,0,0,
0,0,2147483660,0,0,0,0,0,28,0,0,0,0,0,0,0,0,0,30,0,0,0,0,0,0,0,0,0,0,0,
0,0,2147483666,0,0,0,0,0,0,11,0,0,0,0,0,0,0,0,0,0,0,0,0,12,0,0,0,0,0,0,
0,0,2147483660,0,0,0,0,0,0,17,0,0,0,0,0,0,0,0,0,0,0,0,0,18,0,0,0,0,0,0,
0,0,2147483666,0,0,0,0,0,0,0,0,0,0,0,0,0,0,0,0,0,0,0,0,0,0,0,0,0,0,0,
0,0,0,0,0,0,0,0,0,0,0,0,0,0,0,0,0,0,0,0,0,0,0,0,0,0,0,0,0,0,
0,0,0,0,0,0,0,0,0,0,0,0,0,0,0,0,0,0,0,0,0,0,0,0,0,0,0,0,0,0,
0,0,0,0,0,0,0,0,0,0,0,0,0,0,0,0,0,0,0,0,0,0,0,0,0,0,0,0,0,0,
0,0,0,0,0,0,0,0,0,0,0,0,0,0,0,0,0,0,0,0,0,0,0,0,0,0,0,0,0,0,
0,0,0,0,0,0,0,0,22,23,24,22,23,24,22,23,24,0,0,0,0,0,0,0,0,0,0,0,0,0,
0,0,0,0,0,0,0,0,28,29,30,28,29,30,28,29,30,0,0,0,0,0,0,0,0,0,0,0,0,0,
0,0,0,0,0,0,0,0,0,0,0,0,0,0,0,0,0,0,0,0,0,0,0,0,0,0,0,0,0,0,
0,0,0,0,0,0,0,0,0,0,0,0,0,0,0,0,0,0,0,0,0,0,0,0,0,0,0,0,0,0,
0,0,0,0,0,0,0,0,0,0,0,0,0,22,23,24,22,23,24,22,23,24,0,0,0,0,0,0,0,0,
0,0,0,0,0,0,0,0,0,0,0,0,0,28,29,30,28,29,30,28,29,30,0,0,0,0,0,0,0,0,
0,0,0,0,0,0,0,0,0,0,0,0,0,0,0,0,0,0,0,0,0,0,0,0,0,0,0,0,0,0,
0,0,0,0,0,0,0,0,0,0,0,0,0,0,0,0,0,0,0,0,0,0,0,0,0,0,0,0,0,0,
0,0,0,0,0,0,0,0,0,0,0,0,0,0,0,0,0,0,0,0,0,0,0,0,0,0,0,0,0,0,
0,0,0,0,0,0,0,0,0,0,0,0,0,0,0,0,0,0,0,0,0,0,0,0,0,0,0,12,0,0,
0,0,0,0,0,0,0,0,0,0,0,0,0,0,0,0,0,0,0,0,0,0,0,0,0,0,0,18,0,0,
0,0,0,0,22,23,24,0,0,0,0,22,23,24,0,0,0,0,0,0,0,0,0,0,0,0,0,11,0,0,
0,0,0,0,28,29,30,0,0,0,0,28,29,30,0,0,0,0,0,0,0,0,0,0,0,0,0,17,0,0,
0,0,0,0,0,0,0,0,0,0,0,0,0,0,0,0,0,0,0,0,0,0,0,0,0,0,0,12,0,0,
0,0,0,0,0,0,0,0,0,0,0,0,0,0,0,0,0,0,0,0,0,0,0,0,0,0,0,18,0,0,
0,0,0,0,0,0,0,0,0,0,0,0,0,0,0,0,0,0,0,0,0,0,0,0,0,0,0,0,0,0,
0,0,0,0,0,0,0,0,0,0,0,0,0,0,0,0,0,0,0,0,0,0,0,0,0,0,0,0,0,0,
0,0,0,0,0,0,0,0,0,0,0,0,0,0,0,0,0,0,0,0,0,0,0,0,0,0,0,0,0,0,
0,0,0,0,0,0,0,0,0,0,0,0,0,0,0,0,0,0,0,0,0,0,0,0,0,0,0,0,0,0,
0,0,0,0,0,0,0,0,0,0,0,0,0,0,0,0,0,0,24,23,0,0,0,0,0,0,0,0,0,0,
0,0,0,0,0,0,0,0,0,0,0,0,0,0,0,0,0,0,30,29,0,0,0,0,0,0,0,0,0,0,
0,0,0,2147483659,0,0,0,0,0,0,0,0,0,0,0,0,0,0,0,0,0,0,0,12,0,0,0,0,0,0,
0,0,0,2147483665,0,0,0,0,0,0,0,0,0,0,0,0,0,0,0,0,0,0,0,18,0,0,0,0,0,0,
0,0,0,0,0,0,0,0,0,0,0,0,0,0,0,22,0,0,0,0,0,0,0,11,0,0,0,0,0,0,
0,0,0,0,0,0,0,0,0,0,0,0,0,0,0,28,0,0,0,0,0,0,0,17,0,0,0,0,0,0,
0,0,0,0,0,0,0,0,0,0,0,0,0,0,0,0,0,0,0,0,0,0,0,0,0,0,0,0,0,0,
0,0,0,0,0,0,0,0,0,0,0,0,0,0,0,0,0,0,0,0,0,0,0,0,0,0,0,0,0,0
</data>
 </layer>
 <layer id="4" name="debris" width="30" height="60">
  <data encoding="csv">
0,0,0,0,0,0,0,0,0,0,0,0,0,0,0,0,0,0,0,0,0,0,0,0,0,0,0,0,0,0,
0,0,0,0,0,0,0,0,0,0,0,0,0,0,0,0,0,0,0,0,0,0,0,0,0,0,0,0,0,0,
0,0,0,0,0,0,0,0,0,0,0,0,0,0,0,0,0,0,0,0,0,0,0,0,0,0,0,0,0,0,
0,0,0,0,0,0,0,0,0,0,0,0,0,0,0,0,0,0,0,0,0,0,0,0,0,0,0,0,0,0,
0,0,0,4,0,0,0,0,0,0,0,0,0,0,0,0,0,0,0,0,0,0,0,0,0,0,0,0,0,0,
0,0,0,0,0,0,0,0,0,0,0,0,0,0,0,0,0,0,0,0,0,0,0,0,0,0,0,0,0,0,
0,0,0,0,0,0,0,0,0,0,0,0,0,0,0,0,0,0,6,0,0,5,0,0,0,0,0,0,0,0,
0,0,0,0,0,0,0,0,0,0,0,0,0,0,0,0,0,0,0,0,0,0,0,0,0,0,0,0,0,0,
0,0,0,0,0,0,2147483664,2147483664,0,0,0,0,0,0,0,0,0,0,1073741840,1073741840,0,0,0,0,0,0,0,0,0,0,
0,0,0,0,0,0,0,0,0,0,0,0,0,0,0,0,0,0,0,0,0,0,0,0,0,0,0,0,0,0,
0,0,0,0,0,0,6,0,0,0,0,0,0,0,0,0,0,0,0,0,0,0,0,0,0,0,0,0,0,0,
0,0,0,0,0,0,0,0,0,0,0,0,0,0,0,0,0,0,0,0,0,0,0,0,0,0,0,0,0,0,
0,0,0,0,0,0,0,0,0,0,0,0,0,0,0,0,0,0,0,0,0,0,0,0,0,0,0,0,0,0,
0,0,0,0,0,0,0,0,0,0,0,0,0,0,0,0,0,0,0,0,0,0,0,0,0,0,0,0,0,0,
0,0,0,0,0,0,0,0,0,0,0,0,0,0,0,0,0,0,0,0,0,0,0,0,0,0,0,0,0,0,
0,0,0,0,0,0,0,0,0,0,0,0,0,0,0,0,0,0,0,0,0,0,0,0,0,0,0,0,0,0,
0,0,0,0,0,0,0,0,0,0,0,0,0,0,0,0,0,0,0,0,0,0,0,0,0,0,0,0,0,0,
0,0,0,0,0,0,0,0,0,0,0,0,0,0,0,0,0,0,0,0,0,0,0,0,0,0,0,0,0,0,
0,0,0,0,0,0,0,0,0,0,0,0,0,0,0,0,0,0,0,0,1610612752,0,0,0,0,0,5,0,0,0,
0,0,0,0,0,0,0,0,0,6,0,0,0,0,0,0,0,0,0,0,1610612752,0,0,0,0,0,0,0,0,0,
0,0,0,0,0,0,0,0,0,0,0,0,0,0,0,0,0,0,0,0,0,0,0,0,0,0,0,0,0,0,
0,0,0,0,0,0,0,0,0,0,0,0,0,0,0,0,0,0,0,5,0,0,0,0,0,0,0,0,0,0,
0,0,0,0,0,0,0,0,0,0,0,0,0,0,0,0,0,0,0,0,0,0,0,0,0,0,0,0,0,0,
0,0,0,0,0,0,0,0,0,0,0,0,0,0,0,0,0,0,0,0,0,0,0,0,0,0,0,0,0,0,
0,0,0,0,0,0,0,0,0,0,0,0,0,0,0,0,0,0,0,0,0,0,0,0,0,0,0,0,0,0,
0,0,0,0,4,0,0,0,0,0,0,0,0,0,0,0,0,0,0,0,0,0,0,0,0,0,0,0,0,0,
0,0,0,0,0,0,0,0,0,0,0,0,0,0,0,0,0,0,0,0,0,0,0,0,0,0,0,0,0,0,
0,0,0,0,0,2147483664,2147483664,0,0,0,0,0,0,0,0,0,0,0,6,0,0,0,0,0,0,0,0,0,0,0,
0,0,0,0,0,0,0,0,0,0,0,0,0,0,0,0,0,0,0,0,0,0,0,0,0,0,0,0,0,0,
0,0,0,0,0,0,0,0,0,0,0,0,0,0,0,0,0,0,0,0,0,0,0,0,0,0,0,0,0,0,
0,0,0,0,0,0,0,0,0,0,0,0,0,0,0,0,0,0,0,0,0,0,0,0,0,0,0,0,0,0,
0,0,0,0,0,0,0,0,0,0,0,0,0,0,0,0,0,0,0,0,0,0,0,0,0,0,0,0,0,0,
0,0,0,0,0,0,0,0,0,0,0,0,0,0,0,0,0,0,0,0,0,0,0,0,0,0,0,0,0,0,
0,0,0,0,0,0,0,0,0,0,0,0,0,0,0,0,0,0,0,0,0,0,0,0,0,0,0,0,0,0,
0,0,0,0,0,0,0,0,0,0,0,0,0,0,0,0,0,0,0,3758096400,0,5,0,0,0,0,0,0,0,0,
0,0,0,0,0,0,0,0,0,0,0,0,0,0,0,0,0,0,0,3758096400,0,0,0,0,0,0,0,0,0,0,
0,0,0,0,0,0,0,0,0,0,0,0,0,0,0,0,0,0,0,0,0,0,0,0,0,0,0,0,0,0,
0,0,0,0,0,0,0,0,0,6,0,0,0,0,0,0,0,0,0,0,0,0,0,0,0,0,0,0,0,0,
0,0,0,0,0,0,0,0,0,0,0,0,0,0,0,0,0,0,0,0,0,0,0,4,0,0,0,0,0,0,
0,0,0,0,0,0,0,0,0,0,0,0,0,0,0,0,0,0,0,0,0,0,0,0,0,0,0,0,0,0,
0,0,0,0,0,0,0,0,0,0,0,0,0,0,0,0,0,0,0,0,0,0,0,0,0,0,0,0,0,0,
0,0,0,0,0,0,0,0,0,0,0,0,0,0,0,0,0,0,0,0,0,0,0,0,0,0,0,0,0,0,
0,0,0,0,0,0,0,0,0,0,0,0,0,0,0,0,0,0,0,0,0,0,0,0,6,0,0,0,0,0,
0,0,0,0,0,0,0,0,0,0,0,0,0,0,0,0,0,0,0,0,0,0,0,0,0,0,0,0,0,0,
0,0,0,0,0,0,0,0,3221225488,3221225488,0,0,0,0,0,0,0,0,0,0,0,0,0,1073741840,1073741840,0,0,0,0,0,
0,0,0,0,0,0,0,0,0,0,0,0,0,0,0,0,0,0,0,0,0,0,0,0,0,0,0,0,0,0,
0,0,0,0,0,0,0,0,0,0,0,0,0,0,0,0,0,0,0,0,0,6,0,0,0,0,0,0,0,0,
0,0,0,0,0,0,0,0,0,0,0,0,0,0,0,0,0,0,0,0,0,0,0,0,0,0,0,0,0,0,
0,0,0,0,0,0,0,0,0,0,0,0,0,0,0,0,0,0,0,0,0,0,0,0,0,0,0,0,0,0,
0,0,0,0,0,0,0,0,0,0,0,0,0,0,0,0,0,0,0,0,0,0,0,0,0,0,0,0,0,0,
0,0,0,0,0,0,0,0,0,0,0,0,0,0,0,0,0,0,0,0,0,0,0,0,0,0,0,0,0,0,
0,0,0,0,0,0,0,0,0,0,0,0,0,0,0,0,0,0,0,0,0,0,0,0,0,0,0,0,0,0,
0,0,0,0,0,0,0,0,0,0,0,0,0,0,0,0,0,0,0,0,0,0,0,0,0,0,0,0,0,0,
0,0,0,0,0,6,0,0,0,0,0,0,0,0,0,4,0,6,0,0,0,0,0,0,0,0,0,0,0,0,
0,0,0,0,0,0,16,16,0,0,0,0,0,0,0,0,0,0,0,0,0,0,0,0,0,0,0,0,0,0,
0,0,0,0,0,0,0,0,0,0,0,0,0,0,0,0,0,0,0,0,0,0,0,0,0,0,0,0,0,0,
0,0,0,0,0,5,0,0,0,6,0,0,0,0,0,0,0,0,0,0,0,0,0,0,0,0,0,0,0,0,
0,0,0,0,0,0,0,0,0,0,0,0,0,0,0,0,0,0,0,16,16,0,0,0,0,0,0,0,0,0,
0,0,0,0,0,0,0,0,0,0,0,0,0,0,0,0,0,0,0,0,0,0,0,0,0,0,0,0,0,0,
0,0,0,0,0,0,0,0,0,0,0,0,0,0,0,0,0,0,0,0,0,0,0,0,0,0,0,0,0,0
</data>
 </layer>
</map>
