<?xml version="1.0" encoding="UTF-8"?>
<map version="1.10" tiledversion="1.12.2" orientation="orthogonal" renderorder="right-down" width="30" height="40" tilewidth="24" tileheight="24" infinite="0" nextlayerid="3" nextobjectid="1">
 <tileset firstgid="1" name="interior-2" tilewidth="24" tileheight="24" tilecount="30" columns="6">
  <image source="inside_tileset.png" width="144" height="120"/>
 </tileset>
 <layer id="2" name="floor" width="30" height="40">
  <data encoding="csv">
0,0,0,0,0,0,0,0,0,0,0,0,0,0,0,0,0,0,0,0,0,0,0,0,0,0,0,0,0,0,
0,0,0,0,0,0,0,0,0,0,0,0,0,0,0,0,0,0,0,0,0,0,0,0,0,0,0,0,0,0,
0,0,0,0,0,0,0,0,0,0,0,0,0,0,0,0,0,0,0,0,0,0,0,0,0,0,0,0,0,0,
0,0,0,0,0,0,0,0,0,0,0,0,0,0,0,0,0,0,0,0,0,0,0,0,0,0,0,0,0,0,
0,0,0,0,0,0,0,0,0,0,0,0,0,0,0,0,0,0,0,0,0,0,0,0,0,0,0,0,0,0,
0,0,0,0,0,0,0,0,0,0,0,0,0,0,0,0,0,0,0,0,0,0,0,0,0,0,0,0,0,0,
0,0,0,0,0,0,0,0,0,0,0,0,0,0,0,0,0,0,0,0,0,0,0,0,0,0,0,0,0,0,
0,0,0,0,0,0,0,0,0,0,0,0,0,0,0,0,0,0,0,0,0,0,0,0,0,0,0,0,0,0,
0,0,0,0,0,0,0,0,0,0,0,0,0,0,0,0,0,0,0,0,0,0,0,0,0,0,0,0,0,0,
0,0,0,0,0,0,0,0,0,0,0,0,0,0,0,0,0,0,0,0,0,0,0,0,0,0,0,0,0,0,
0,0,0,0,0,3,3,3,3,3,3,3,0,0,0,25,25,25,25,25,25,25,0,0,0,0,0,0,0,0,
0,0,0,0,0,3,3,3,3,3,3,3,0,0,0,25,25,25,25,25,25,25,0,0,0,0,0,0,0,0,
0,0,0,0,0,3,3,3,3,3,3,3,3,3,3,25,25,25,25,25,25,25,0,0,0,0,0,0,0,0,
0,0,0,0,0,3,3,3,3,3,3,3,0,0,0,25,25,25,25,25,25,25,0,0,0,0,0,0,0,0,
0,0,0,0,0,3,3,3,3,3,3,3,0,0,0,25,25,25,25,25,25,25,0,0,0,0,0,0,0,0,
0,0,0,0,0,3,3,3,3,3,3,3,0,0,0,25,25,25,25,25,25,25,0,0,0,0,0,0,0,0,
0,0,0,0,0,0,0,0,0,21,21,0,0,0,0,0,0,0,0,0,0,0,0,0,0,0,0,0,0,0,
0,0,0,0,0,0,0,0,0,21,21,0,0,0,0,0,0,0,0,0,0,0,0,0,0,0,0,0,0,0,
0,0,0,0,0,0,0,0,0,21,21,0,0,0,0,0,0,0,0,0,0,0,0,0,0,0,0,0,0,0,
0,0,0,3,3,3,3,3,3,3,3,3,3,0,0,0,0,0,25,25,25,25,25,0,0,0,0,0,0,0,
0,0,0,3,3,3,3,3,3,3,3,3,3,0,0,0,0,0,25,25,25,25,25,0,0,0,0,0,0,0,
0,0,0,3,3,3,3,3,3,3,3,3,3,0,0,0,0,0,25,25,25,25,25,0,0,0,0,0,0,0,
0,0,0,3,3,3,3,3,3,3,3,3,3,0,0,0,0,0,0,0,21,0,0,0,0,0,0,0,0,0,
0,0,0,3,3,3,3,3,3,3,3,3,3,0,0,0,0,0,0,0,21,0,0,0,0,0,0,0,0,0,
0,0,0,3,3,3,3,3,3,3,3,3,3,0,0,0,0,0,0,0,21,0,0,0,0,0,0,0,0,0,
0,0,0,3,3,3,3,3,3,3,3,3,3,0,0,0,0,0,0,3,3,3,3,3,3,3,3,0,0,0,
0,0,0,0,21,21,0,0,0,0,0,0,0,0,0,0,0,0,0,3,3,3,3,3,3,3,3,0,0,0,
0,0,0,0,21,21,0,0,0,0,0,0,0,0,0,0,0,0,0,3,3,3,3,3,3,3,3,0,0,0,
0,0,0,0,21,21,0,0,0,0,0,0,0,0,0,0,0,0,0,3,3,3,3,3,3,3,3,0,0,0,
0,0,0,0,21,21,0,0,0,0,0,0,0,0,0,0,0,0,0,3,3,3,3,3,3,3,3,0,0,0,
0,0,0,3,3,3,3,0,0,0,0,0,0,0,0,0,0,0,0,3,3,3,3,3,3,3,3,0,0,0,
0,0,0,3,3,3,3,0,0,0,0,0,0,0,0,0,0,0,0,0,0,0,0,0,21,0,0,0,0,0,
0,0,0,3,3,3,3,0,0,0,0,0,0,0,0,0,0,0,0,0,0,0,0,0,21,0,0,0,0,0,
0,0,0,3,3,3,3,0,0,9,9,9,9,9,9,9,9,9,0,0,0,0,0,0,21,0,0,0,0,0,
0,0,0,3,3,3,3,3,3,3,3,3,3,3,3,3,3,3,0,0,0,3,3,3,3,3,3,3,3,0,
0,0,0,0,0,0,0,0,0,3,3,3,3,3,3,3,3,3,0,0,0,3,3,3,3,3,3,3,3,0,
0,0,0,0,0,0,0,0,0,3,3,3,3,3,3,3,3,3,0,0,0,3,3,3,3,3,3,3,3,0,
0,0,0,0,0,0,0,0,0,3,3,3,3,3,3,3,3,3,0,0,0,3,3,3,3,3,3,3,3,0,
0,0,0,0,0,0,0,0,0,3,3,3,3,3,3,3,3,3,0,0,0,3,3,3,3,3,3,3,3,0,
0,0,0,0,0,0,0,0,0,0,0,0,0,0,0,0,0,0,0,0,0,0,0,0,0,21,21,0,0,0
</data>
 </layer>
 <layer id="1" name="walls" width="30" height="40">
  <data encoding="csv">
0,0,0,0,0,0,0,0,0,0,0,0,0,0,0,0,0,0,0,0,0,0,0,0,0,0,0,0,0,0,
0,0,0,0,0,0,0,0,0,0,0,0,0,0,0,0,0,0,0,0,0,0,0,0,0,0,0,0,0,0,
0,0,0,0,0,0,0,0,0,0,0,0,0,0,0,0,0,0,0,0,0,0,0,0,0,0,0,0,0,0,
0,0,0,0,0,0,0,0,0,0,0,0,0,0,0,0,0,0,0,0,0,0,0,0,0,0,0,0,0,0,
0,0,0,0,0,0,0,0,0,0,0,0,0,0,0,0,0,0,0,0,0,0,0,0,0,0,0,0,0,0,
0,0,0,0,0,0,0,0,0,0,0,0,0,0,0,0,0,0,0,0,0,0,0,0,0,0,0,0,0,0,
0,0,0,0,0,0,0,0,0,0,0,0,0,0,0,0,0,0,0,0,0,0,0,0,0,0,0,0,0,0,
0,0,0,0,0,0,0,0,0,0,0,0,0,0,0,0,0,0,0,0,0,0,0,0,0,0,0,0,0,0,
0,0,0,0,2147483663,13,13,13,13,13,13,13,15,0,2147483663,13,13,13,13,13,13,13,15,0,0,0,0,0,0,0,
0,0,0,0,1610612749,9,9,9,9,9,9,9,2684354573,0,1610612749,19,19,19,19,19,19,19,2684354573,0,0,0,0,0,0,0,
0,0,0,0,1610612749,0,0,0,0,0,0,0,2684354573,0,1610612749,0,0,0,0,0,0,0,2684354573,0,0,0,0,0,0,0,
0,0,0,0,1610612749,0,0,0,0,0,0,0,14,13,2147483662,0,0,0,0,0,0,0,2684354573,0,0,0,0,0,0,0,
0,0,0,0,1610612749,0,0,0,0,0,0,0,0,0,0,0,0,0,0,0,0,0,2684354573,0,0,0,0,0,0,0,
0,0,0,0,1610612749,0,0,0,0,0,0,0,1073741838,1073741837,3221225486,0,0,0,0,0,0,0,2684354573,0,0,0,0,0,0,0,
0,0,0,0,1610612749,0,0,0,0,0,0,0,2684354573,0,1610612749,0,0,0,0,0,0,0,2684354573,0,0,0,0,0,0,0,
0,0,0,0,1610612749,0,0,0,0,0,0,0,2684354573,0,1610612749,0,0,0,0,0,0,0,2684354573,0,0,0,0,0,0,0,
0,0,0,0,536870927,3221225485,3221225485,3221225485,536870926,0,0,2684354574,2684354575,0,536870927,3221225485,3221225485,3221225485,3221225485,3221225485,3221225485,3221225485,2684354575,0,0,0,0,0,0,0,
0,0,2147483663,13,13,13,13,13,1610612750,0,0,14,13,15,0,0,0,2147483663,13,13,13,13,13,15,0,0,0,0,0,0,
0,0,1610612749,9,9,9,9,9,9,0,0,9,9,2684354573,0,0,0,1610612749,19,19,19,19,19,2684354573,0,0,0,0,0,0,
0,0,1610612749,0,0,0,0,0,0,0,0,0,0,2684354573,0,0,0,1610612749,0,0,0,0,0,2684354573,0,0,0,0,0,0,
0,0,1610612749,0,0,0,0,0,0,0,0,0,0,2684354573,0,0,0,1610612749,0,0,0,0,0,2684354573,0,0,0,0,0,0,
0,0,1610612749,0,0,0,0,0,0,0,0,0,0,2684354573,0,0,0,1610612749,0,0,0,0,0,2684354573,0,0,0,0,0,0,
0,0,1610612749,0,0,0,0,0,0,0,0,0,0,2684354573,0,0,0,536870927,3221225485,3221225486,0,1073741838,3221225485,2684354575,0,0,0,0,0,0,
0,0,1610612749,0,0,0,0,0,0,0,0,0,0,2684354573,0,0,0,0,2147483663,1610612750,0,3758096398,13,13,13,13,13,15,0,0,
0,0,1610612749,0,0,0,0,0,0,0,0,0,0,2684354573,0,0,0,0,1610612749,9,0,9,9,9,9,9,9,2684354573,0,0,
0,0,1610612749,0,0,0,0,0,0,0,0,0,0,2684354573,0,0,0,0,1610612749,0,0,0,0,0,0,0,0,2684354573,0,0,
0,0,536870927,3221225486,0,0,1073741838,3221225485,3221225485,3221225485,3221225485,3221225485,3221225485,2684354575,0,0,0,0,1610612749,0,0,0,0,0,0,0,0,2684354573,0,0,
0,0,0,536870925,0,0,2684354573,0,0,0,0,0,0,0,0,0,0,0,1610612749,0,0,0,0,0,0,0,0,2684354573,0,0,
0,0,2147483663,1610612750,0,0,3758096398,15,0,0,0,0,0,0,0,0,0,0,1610612749,0,0,0,0,0,0,0,0,2684354573,0,0,
0,0,1610612749,9,0,0,9,2684354573,0,0,0,0,0,0,0,0,0,0,1610612749,0,0,0,0,0,0,0,0,2684354573,0,0,
0,0,1610612749,0,0,0,0,2684354573,0,0,0,0,0,0,0,0,0,0,1610612749,0,0,0,0,0,0,0,0,2684354573,0,0,
0,0,1610612749,0,0,0,0,2684354573,0,0,0,0,0,0,0,0,0,0,536870927,1073741837,3221225485,3221225485,3221225485,3221225486,0,1073741838,3221225485,2684354575,0,0,
0,0,1610612749,0,0,0,0,2684354573,2147483663,13,13,13,13,13,13,13,13,13,15,0,2147483663,13,13,1610612750,0,3758096398,13,13,13,15,
0,0,1610612749,0,0,0,0,14,2147483662,0,0,0,0,0,0,0,0,0,3758096397,0,1610612749,9,9,9,0,9,9,9,9,2684354573,
0,0,536870925,0,0,0,0,0,0,0,0,0,0,0,0,0,0,0,3758096397,0,1610612749,0,0,0,0,0,0,0,0,2684354573,
0,0,3221225487,1073741837,1073741837,1073741837,1073741837,1073741837,3221225486,0,0,0,0,0,0,0,0,0,3758096397,0,1610612749,0,0,0,0,0,0,0,0,2684354573,
0,0,0,0,0,0,0,0,1610612749,0,0,0,0,0,0,0,0,0,3758096397,0,1610612749,0,0,0,0,0,0,0,0,2684354573,
0,0,0,0,0,0,0,0,1610612749,0,0,0,0,0,0,0,0,0,3758096397,0,1610612749,0,0,0,0,0,0,0,0,2684354573,
0,0,0,0,0,0,0,0,1610612749,0,0,0,0,0,0,0,0,0,3758096397,0,1610612749,0,0,0,0,0,0,0,0,2684354573,
0,0,0,0,0,0,0,0,536870927,1073741837,1073741837,1073741837,1073741837,1073741837,1073741837,1073741837,1073741837,1073741837,2684354575,0,536870927,3221225485,3221225485,3221225485,536870926,0,0,2684354574,3221225485,2684354575
</data>
 </layer>
</map>
