<?xml version="1.0" encoding="UTF-8"?>
<map version="1.10" tiledversion="1.12.2" orientation="orthogonal" renderorder="right-down" width="30" height="40" tilewidth="24" tileheight="24" infinite="0" nextlayerid="3" nextobjectid="1">
 <tileset firstgid="1" name="interior-3" tilewidth="24" tileheight="24" tilecount="30" columns="6">
  <image source="inside_tileset.png" width="144" height="120"/>
 </tileset>
 <layer id="1" name="floor" width="30" height="40">
  <data encoding="csv">
0,0,0,0,0,0,0,0,0,0,0,0,0,0,0,0,0,0,0,0,0,0,0,0,0,0,0,0,0,0,
0,0,0,0,0,0,0,0,0,0,0,0,0,0,0,0,0,0,0,0,0,0,0,0,0,0,0,0,0,0,
0,0,0,0,0,0,0,0,0,4,4,4,4,4,4,4,4,4,4,4,4,4,4,4,4,4,4,4,0,0,
0,0,0,0,0,0,0,0,0,4,4,4,4,4,4,4,4,4,4,4,4,4,4,4,4,4,4,4,0,0,
0,0,0,0,0,0,0,0,0,4,4,4,4,4,4,4,0,0,0,4,4,4,4,4,4,4,4,4,0,0,
0,0,0,0,0,0,0,0,0,4,4,4,4,4,4,4,0,0,0,4,4,4,4,4,4,4,4,4,0,0,
0,0,0,0,0,0,0,0,0,4,4,4,4,4,4,4,0,0,0,4,4,4,4,4,4,4,4,4,0,0,
0,0,0,0,0,0,0,0,0,0,0,0,0,0,0,0,0,0,0,4,4,4,4,4,4,4,4,4,0,0,
0,0,0,0,0,0,0,0,0,0,0,0,0,0,0,0,0,0,0,0,0,0,0,0,0,0,0,0,0,0,
0,0,0,0,0,0,0,0,0,0,0,0,0,0,0,0,0,0,0,0,0,0,0,0,0,0,0,0,0,0,
0,0,0,0,0,0,0,0,0,0,0,0,0,0,0,0,0,0,0,0,0,0,0,0,0,0,0,0,0,0,
0,0,0,0,0,0,0,0,0,0,0,0,0,0,0,27,27,27,27,27,27,27,0,0,0,0,0,0,0,0,
0,0,0,0,0,0,0,0,0,0,0,0,0,0,0,27,27,27,27,27,27,27,0,0,0,0,0,0,0,0,
0,0,0,0,0,0,0,0,0,0,0,0,0,0,0,27,3221225500,27,27,28,27,27,0,0,0,0,0,0,0,0,
0,0,0,0,0,0,0,0,0,0,0,0,0,0,0,27,27,27,27,27,27,27,0,0,0,0,0,0,0,0,
0,0,0,0,0,0,0,0,0,0,0,0,0,0,0,0,0,0,0,0,0,0,0,0,0,0,0,0,0,0,
0,0,0,0,0,0,0,0,0,0,0,0,0,0,0,0,0,0,0,0,0,0,0,0,0,0,0,0,0,0,
0,0,0,0,0,0,0,0,0,0,0,0,0,0,0,0,0,0,0,0,0,0,0,0,0,0,0,0,0,0,
0,0,0,0,0,0,0,0,0,0,0,0,0,0,0,4,4,4,4,4,4,4,4,4,4,4,0,0,0,0,
0,0,0,0,0,0,0,0,0,0,0,0,0,0,0,4,4,4,4,4,4,4,4,4,4,4,0,0,0,0,
0,0,0,0,0,0,0,0,0,0,0,0,0,0,0,4,4,4,4,4,4,4,4,4,4,4,0,0,0,0,
0,0,0,0,0,0,0,0,0,0,0,0,0,0,0,4,4,4,4,4,4,4,4,4,4,4,0,0,0,0,
0,0,0,0,0,0,0,0,0,0,0,0,0,0,0,4,4,4,4,4,4,4,4,4,4,4,0,0,0,0,
0,0,0,0,0,0,0,0,0,0,0,0,0,0,0,0,0,0,0,0,0,0,0,0,0,0,0,0,0,0,
0,0,4,4,4,4,4,4,0,0,0,0,0,0,0,0,0,0,0,0,0,0,0,0,0,0,0,0,0,0,
0,0,4,4,4,4,4,4,0,0,0,0,0,0,0,0,0,0,0,0,0,0,0,0,0,0,0,0,0,0,
0,0,4,4,4,4,4,4,0,0,0,0,0,0,0,0,0,0,0,0,0,0,0,0,4,4,4,4,4,0,
0,0,4,4,4,4,4,4,0,0,0,0,0,0,0,0,0,0,0,0,0,0,0,0,4,4,4,4,4,0,
0,0,4,4,4,4,4,4,0,0,0,0,0,0,0,0,0,0,0,0,0,0,0,0,4,4,4,4,4,0,
0,0,4,4,4,4,4,4,0,0,0,0,0,0,0,0,0,0,0,0,0,0,0,0,4,4,4,4,4,0,
0,0,0,0,0,0,0,0,0,0,0,0,0,0,0,0,0,0,0,0,0,0,0,0,4,4,4,4,4,0,
0,0,0,0,0,0,0,0,0,0,0,0,0,0,0,0,0,0,0,0,0,0,0,0,4,4,4,4,4,0,
0,0,0,0,0,0,0,0,0,0,0,0,0,0,27,27,27,27,27,27,27,27,4,4,4,4,4,4,4,0,
0,0,4,4,4,4,4,4,4,4,4,0,0,0,27,27,27,27,27,3221225500,27,27,4,4,4,4,4,4,4,0,
0,0,4,4,4,4,4,4,4,4,4,0,0,0,27,28,27,27,27,27,27,27,0,0,0,0,0,0,0,0,
0,0,4,4,4,4,4,4,4,4,4,4,4,4,27,27,27,27,27,27,27,27,0,0,0,0,0,0,0,0,
0,0,4,4,4,4,4,4,4,4,4,4,4,4,27,27,27,27,27,28,27,27,0,0,0,0,0,0,0,0,
0,0,4,4,4,4,4,4,4,4,4,0,0,0,27,27,27,27,27,27,27,27,0,0,0,0,0,0,0,0,
0,0,4,4,4,4,4,4,4,4,4,0,0,0,0,0,0,0,0,0,0,0,0,0,0,0,0,0,0,0,
0,0,0,0,22,22,0,0,0,0,0,0,0,0,0,0,0,0,0,0,0,0,0,0,0,0,0,0,0,0
</data>
 </layer>
 <layer id="2" name="walls" width="30" height="40">
  <data encoding="csv">
0,0,0,0,0,0,0,0,2147483666,16,16,16,16,16,16,16,18,0,2147483666,16,16,16,16,16,16,16,16,16,18,0,
0,0,0,0,0,0,0,0,1610612752,10,10,10,10,10,10,10,17,2147483664,2147483665,10,10,10,10,10,10,10,10,10,2684354576,0,
0,0,0,0,0,0,0,0,1610612752,0,0,0,0,0,0,0,0,0,0,0,0,0,0,0,0,0,0,0,2684354576,0,
0,0,0,0,0,0,0,0,1610612752,0,0,0,0,0,0,0,0,0,0,0,0,0,0,0,0,0,0,0,2684354576,0,
0,0,0,0,0,0,0,0,1610612752,0,0,0,0,0,0,0,1073741841,3221225488,3221225489,0,0,0,0,0,0,0,0,0,2684354576,0,
0,0,0,0,0,0,0,0,1610612752,0,0,0,0,0,0,0,2684354576,0,1610612752,0,0,0,0,0,0,0,0,0,2684354576,0,
0,0,0,0,0,0,0,0,1610612752,0,0,0,0,0,0,0,2684354576,0,1610612752,0,0,0,0,0,0,0,0,0,2684354576,0,
0,0,0,0,0,0,0,0,3221225490,3221225488,3221225488,3221225488,3221225488,3221225488,3221225488,3221225488,2684354578,0,1610612752,0,0,0,0,0,0,0,0,0,2684354576,0,
0,0,0,0,0,0,0,0,0,0,0,0,0,0,0,0,0,0,3221225490,3221225489,22,22,1073741841,3221225488,3221225488,3221225488,3221225488,3221225488,1073741842,0,
0,0,0,0,0,0,0,0,0,0,0,0,0,0,2147483666,16,16,16,16,2147483665,22,22,2684354576,0,0,0,0,0,0,0,
0,0,0,0,0,0,0,0,0,0,0,0,0,0,1610612752,29,29,29,29,29,22,22,2684354576,0,0,0,0,0,0,0,
0,0,0,0,0,0,0,0,0,0,0,0,0,0,1610612752,0,0,0,0,0,0,0,2684354576,0,0,0,0,0,0,0,
0,0,0,0,0,0,0,0,0,0,0,0,0,0,1610612752,0,0,0,0,0,0,0,2684354576,0,0,0,0,0,0,0,
0,0,0,0,0,0,0,0,0,0,0,0,0,0,1610612752,0,0,0,0,0,0,0,2684354576,0,0,0,0,0,0,0,
0,0,0,0,0,0,0,0,0,0,0,0,0,0,1610612752,0,0,0,0,0,0,0,2684354576,0,0,0,0,0,0,0,
0,0,0,0,0,0,0,0,0,0,0,0,0,0,3221225490,3221225488,3221225488,3221225489,22,22,1073741841,3221225488,2684354578,0,0,0,0,0,0,0,
0,0,0,0,0,0,0,0,0,0,0,0,0,0,2147483666,16,16,2147483665,22,22,17,16,16,16,16,16,18,0,0,0,
0,0,0,0,0,0,0,0,0,0,0,0,0,0,1610612752,10,10,10,22,22,10,10,10,10,10,10,2684354576,0,0,0,
0,0,0,0,0,0,0,0,0,0,0,0,0,0,1610612752,0,0,0,0,0,0,0,0,0,0,0,2684354576,0,0,0,
0,0,0,0,0,0,0,0,0,0,0,0,0,0,1610612752,0,0,0,0,0,0,0,0,0,0,0,2684354576,0,0,0,
0,0,0,0,0,0,0,0,0,0,0,0,0,0,1610612752,0,0,0,0,0,0,0,0,0,0,0,2684354576,0,0,0,
0,0,0,0,0,0,0,0,0,0,0,0,0,0,1610612752,0,0,0,0,0,0,0,0,0,0,0,2684354576,0,0,0,
0,2147483666,16,16,16,16,16,16,18,0,0,0,0,0,1610612752,0,0,0,0,0,0,0,0,0,0,0,2684354576,0,0,0,
0,1610612752,10,10,10,10,10,10,3758096400,0,0,0,0,0,3221225490,3221225488,3221225488,3221225488,3221225488,3221225488,3221225488,3221225488,3221225488,3221225489,22,22,2684354576,0,0,0,
0,1610612752,0,0,0,0,0,0,3758096400,0,0,0,0,0,0,0,0,0,0,0,0,0,0,1610612752,22,22,17,16,16,18,
0,1610612752,0,0,0,0,0,0,3758096400,0,0,0,0,0,0,0,0,0,0,0,0,0,0,1610612752,22,22,10,10,10,2684354576,
0,1610612752,0,0,0,0,0,0,3758096400,0,0,0,0,0,0,0,0,0,0,0,0,0,0,1610612752,0,0,0,0,0,2684354576,
0,1610612752,0,0,0,0,0,0,3758096400,0,0,0,0,0,0,0,0,0,0,0,0,0,0,1610612752,0,0,0,0,0,2684354576,
0,1610612752,0,0,0,0,0,0,3758096400,0,0,0,0,0,0,0,0,0,0,0,0,0,0,1610612752,0,0,0,0,0,2684354576,
0,1610612752,0,0,0,0,0,0,3758096400,0,0,0,0,0,0,0,0,0,0,0,0,0,0,1610612752,0,0,0,0,0,2684354576,
0,3221225490,3221225489,22,22,1073741841,1073741840,1073741840,1073741842,0,0,0,0,2147483666,16,16,16,16,16,16,16,16,18,1610612752,0,0,0,0,0,2684354576,
0,2147483666,2147483665,22,22,17,16,16,16,16,16,18,0,1610612752,29,29,29,29,29,29,29,29,17,2147483665,0,0,0,0,0,2684354576,
0,1610612752,10,22,22,10,10,10,10,10,10,2684354576,0,1610612752,0,0,0,0,0,0,0,0,0,0,0,0,0,0,0,2684354576,
0,1610612752,0,0,0,0,0,0,0,0,0,2684354576,0,1610612752,0,0,0,0,0,0,0,0,0,0,0,0,0,0,0,2684354576,
0,1610612752,0,0,0,0,0,0,0,0,0,17,16,1610612753,0,0,0,0,0,0,0,0,1073741841,3221225488,3221225488,3221225488,3221225488,3221225488,3221225488,1073741842,
0,1610612752,0,0,0,0,0,0,0,0,0,0,0,0,0,0,0,0,0,0,0,0,2684354576,0,0,0,0,0,0,0,
0,1610612752,0,0,0,0,0,0,0,0,0,0,0,0,0,0,0,0,0,0,0,0,2684354576,0,0,0,0,0,0,0,
0,1610612752,0,0,0,0,0,0,0,0,0,1073741841,3221225488,3221225489,0,0,0,0,0,0,0,0,2684354576,0,0,0,0,0,0,0,
0,1610612752,0,0,0,0,0,0,0,0,0,3758096400,0,3221225490,3221225488,3221225488,3221225488,3221225488,3221225488,3221225488,3221225488,3221225488,1073741842,0,0,0,0,0,0,0,
0,3221225490,3221225488,3221225488,0,0,3221225488,3221225488,3221225488,3221225488,3221225488,1073741842,0,0,0,0,0,0,0,0,0,0,0,0,0,0,0,0,0,0
</data>
 </layer>
</map>
