<?xml version="1.0" encoding="UTF-8"?>
<map version="1.10" tiledversion="1.12.2" orientation="orthogonal" renderorder="right-down" width="30" height="40" tilewidth="24" tileheight="24" infinite="0" nextlayerid="5" nextobjectid="1">
 <tileset firstgid="1" name="interior" tilewidth="24" tileheight="24" tilecount="30" columns="6">
  <image source="inside_tileset.png" width="144" height="120"/>
 </tileset>
 <tileset firstgid="31" name="furniture" tilewidth="24" tileheight="24" tilecount="232" columns="8">
  <image source="furniture.png" width="192" height="718"/>
 </tileset>
 <layer id="2" name="floor" width="30" height="40">
  <data encoding="csv">
0,0,0,0,0,0,0,0,0,0,0,0,0,0,0,0,0,0,0,0,0,0,0,0,0,0,0,0,0,0,
0,0,0,0,0,0,0,0,0,0,0,0,0,0,0,0,0,0,0,0,0,0,0,0,0,0,0,0,0,0,
0,0,0,0,0,0,0,0,0,0,0,0,0,0,0,0,0,0,0,0,0,0,0,0,0,0,0,0,0,0,
0,0,0,0,0,0,0,0,0,0,0,0,0,0,0,0,0,0,0,0,0,0,0,0,0,0,0,0,0,0,
0,0,0,0,0,0,0,0,0,0,0,0,0,0,0,0,0,0,0,0,0,0,0,0,0,0,0,0,0,0,
0,0,0,0,0,0,0,0,0,0,0,0,0,0,0,0,0,0,0,0,0,0,0,0,0,0,0,0,0,0,
0,0,0,0,0,0,0,0,0,0,0,0,0,0,0,0,0,0,0,0,0,0,0,0,0,0,0,0,0,0,
0,0,0,0,0,0,0,0,0,0,0,0,0,0,0,0,0,0,0,0,0,0,0,0,0,0,0,0,0,0,
0,0,0,0,0,0,0,0,0,0,0,0,0,0,0,0,0,0,0,0,0,0,0,0,0,0,0,0,0,0,
0,0,0,0,0,0,0,0,0,0,0,0,0,0,0,0,0,0,0,0,0,0,0,0,0,0,0,0,0,0,
0,0,0,0,0,0,0,0,0,0,0,0,0,0,0,0,0,0,0,0,0,0,0,0,0,0,0,0,0,0,
0,0,0,0,0,0,0,0,0,0,0,0,0,0,0,0,0,0,0,0,0,0,0,0,0,0,0,0,0,0,
0,0,0,0,0,0,0,0,0,0,0,0,0,0,0,0,0,0,0,0,0,0,0,0,0,0,0,0,0,0,
0,0,0,0,0,0,0,0,0,0,0,0,0,0,0,0,0,0,0,0,0,0,0,0,0,0,0,0,0,0,
0,0,0,0,0,0,0,0,0,0,0,0,0,0,0,0,0,0,0,0,0,0,0,0,0,0,0,0,0,0,
0,0,0,0,0,0,0,0,0,0,0,0,0,0,0,0,0,0,0,0,0,0,0,0,0,0,0,0,0,0,
0,0,0,0,2,2,2,2,2,2,2,2,2,2,2,0,0,0,0,0,0,0,0,0,0,0,0,0,0,0,
0,0,0,0,2,2,2,2,2,2,2,2,2,2,2,0,0,0,0,0,0,0,0,0,0,0,0,0,0,0,
0,0,0,0,2,2,2,2,2,2,2,2,2,2,2,0,0,0,2,2,2,2,2,2,2,0,0,0,0,0,
0,0,0,0,2,2,2,2,2,2,2,2,2,2,2,0,0,0,2,2,2,2,2,2,2,0,0,0,0,0,
0,0,0,0,2,2,2,2,2,2,2,2,2,2,2,0,0,0,2,2,2,2,2,2,2,0,0,0,0,0,
0,0,0,0,2,2,2,2,2,2,2,2,2,2,2,0,0,0,2,2,2,2,2,2,2,0,0,0,0,0,
0,0,0,0,2,2,2,2,2,2,2,2,2,2,2,0,0,0,2,2,2,2,2,2,2,0,0,0,0,0,
0,0,0,0,2,2,2,0,0,0,0,0,0,0,20,0,0,0,0,0,0,0,0,20,0,0,0,0,0,0,
0,0,0,0,2,2,2,0,0,0,0,0,0,0,20,0,0,0,0,0,0,0,0,20,0,0,0,0,0,0,
0,0,0,0,2,2,2,0,0,0,0,0,0,0,20,0,0,0,0,0,0,0,0,20,0,0,0,0,0,0,
0,0,0,0,2,2,2,0,0,0,0,0,0,0,20,0,0,0,0,0,0,0,0,20,0,0,0,0,0,0,
0,0,0,0,0,20,0,0,0,0,0,0,0,0,20,0,0,0,0,0,25,25,25,25,3221225498,0,0,0,0,0,
0,0,0,0,0,20,0,0,0,0,0,0,25,25,25,25,25,25,0,0,25,25,25,25,25,0,0,0,0,0,
0,0,0,0,0,20,0,0,0,0,0,0,25,25,25,25,26,25,25,25,25,25,26,25,25,0,0,0,0,0,
0,0,0,0,0,20,0,0,0,0,0,0,25,3221225498,25,25,25,25,0,0,25,25,25,25,25,0,0,0,0,0,
0,0,0,2,2,2,2,2,0,0,0,0,0,0,0,0,0,0,0,0,0,0,20,0,0,0,0,0,0,0,
0,0,0,2,2,2,2,2,0,0,0,0,0,0,0,0,0,0,0,0,0,0,20,0,0,0,0,0,0,0,
0,0,0,2,2,2,2,2,0,0,0,0,0,0,0,0,0,0,0,0,0,0,20,0,0,0,0,0,0,0,
0,0,0,2,2,2,2,2,0,0,0,2,2,2,2,2,2,2,2,0,0,2,2,2,2,2,2,0,0,0,
0,0,0,2,2,2,2,2,2,2,2,2,2,2,2,2,2,2,2,0,0,2,2,2,2,2,2,0,0,0,
0,0,0,2,2,2,2,2,2,2,2,2,2,2,2,2,2,2,2,0,0,2,2,2,2,2,2,0,0,0,
0,0,0,2,2,2,2,2,0,0,0,2,2,2,2,2,2,2,2,0,0,2,2,2,2,2,2,0,0,0,
0,0,0,0,0,0,0,0,0,0,0,2,2,2,2,2,2,2,2,0,0,0,0,0,0,0,0,0,0,0,
0,0,0,0,0,0,0,0,0,0,0,2,2,2,2,2,2,2,2,0,0,0,0,0,0,0,0,0,0,0
</data>
 </layer>
 <layer id="1" name="walls" width="30" height="40">
  <data encoding="csv">
0,0,0,0,0,0,0,0,0,0,0,0,0,0,0,0,0,0,0,0,0,0,0,0,0,0,0,0,0,0,
0,0,0,0,0,0,0,0,0,0,0,0,0,0,0,0,0,0,0,0,0,0,0,0,0,0,0,0,0,0,
0,0,0,0,0,0,0,0,0,0,0,0,0,0,0,0,0,0,0,0,0,0,0,0,0,0,0,0,0,0,
0,0,0,0,0,0,0,0,0,0,0,0,0,0,0,0,0,0,0,0,0,0,0,0,0,0,0,0,0,0,
0,0,0,0,0,0,0,0,0,0,0,0,0,0,0,0,0,0,0,0,0,0,0,0,0,0,0,0,0,0,
0,0,0,0,0,0,0,0,0,0,0,0,0,0,0,0,0,0,0,0,0,0,0,0,0,0,0,0,0,0,
0,0,0,0,0,0,0,0,0,0,0,0,0,0,0,0,0,0,0,0,0,0,0,0,0,0,0,0,0,0,
0,0,0,0,0,0,0,0,0,0,0,0,0,0,0,0,0,0,0,0,0,0,0,0,0,0,0,0,0,0,
0,0,0,0,0,0,0,0,0,0,0,0,0,0,0,0,0,0,0,0,0,0,0,0,0,0,0,0,0,0,
0,0,0,0,0,0,0,0,0,0,0,0,0,0,0,0,0,0,0,0,0,0,0,0,0,0,0,0,0,0,
0,0,0,0,0,0,0,0,0,0,0,0,0,0,0,0,0,0,0,0,0,0,0,0,0,0,0,0,0,0,
0,0,0,0,0,0,0,0,0,0,0,0,0,0,0,0,0,0,0,0,0,0,0,0,0,0,0,0,0,0,
0,0,0,0,0,0,0,0,0,0,0,0,0,0,0,0,0,0,0,0,0,0,0,0,0,0,0,0,0,0,
0,0,0,0,0,0,0,0,0,0,0,0,0,0,0,0,0,0,0,0,0,0,0,0,0,0,0,0,0,0,
0,0,0,2147483666,16,16,16,16,16,16,16,16,16,16,16,18,0,0,0,0,0,0,0,0,0,0,0,0,0,0,
0,0,0,1610612752,8,8,8,8,8,8,8,8,8,8,8,2684354576,0,0,0,0,0,0,0,0,0,0,0,0,0,0,
0,0,0,1610612752,0,0,0,0,0,0,0,0,0,0,0,2684354576,0,2147483666,16,16,16,16,16,16,16,18,0,0,0,0,
0,0,0,1610612752,0,0,0,0,0,0,0,0,0,0,0,2684354576,0,1610612752,8,8,8,8,8,8,8,2684354576,0,0,0,0,
0,0,0,1610612752,0,0,0,0,0,0,0,0,0,0,0,2684354576,0,1610612752,0,0,0,0,0,0,0,2684354576,0,0,0,0,
0,0,0,1610612752,0,0,0,0,0,0,0,0,0,0,0,2684354576,0,1610612752,0,0,0,0,0,0,0,2684354576,0,0,0,0,
0,0,0,1610612752,0,0,0,0,0,0,0,0,0,0,0,2684354576,0,1610612752,0,0,0,0,0,0,0,2684354576,0,0,0,0,
0,0,0,1610612752,0,0,0,0,0,0,0,0,0,0,0,2684354576,0,1610612752,0,0,0,0,0,0,0,2684354576,0,0,0,0,
0,0,0,1610612752,0,0,0,0,0,0,0,0,0,0,0,2684354576,0,1610612752,0,0,0,0,0,0,0,2684354576,0,0,0,0,
0,0,0,1610612752,0,0,0,2684354577,3221225488,3221225488,3221225488,3221225488,3221225488,536870929,0,3758096400,0,536870930,3221225488,3221225488,3221225488,3221225488,536870929,0,2684354577,2684354578,0,0,0,0,
0,0,0,1610612752,0,0,0,2684354576,0,0,0,0,0,1610612752,0,3758096400,0,0,0,0,0,0,1610612752,0,3758096400,0,0,0,0,0,
0,0,0,1610612752,0,0,0,2684354576,0,0,0,0,0,1610612752,0,3758096400,0,0,0,2147483666,16,16,2147483665,0,17,18,0,0,0,0,
0,0,0,1610612752,0,0,0,2684354576,0,0,0,2147483666,16,2147483665,0,17,16,16,18,536870928,19,19,19,0,19,2684354576,0,0,0,0,
0,0,0,536870930,536870929,0,2684354577,2684354578,0,0,0,536870928,19,19,0,19,19,19,2684354576,536870928,0,0,0,0,0,2684354576,0,0,0,0,
0,0,0,0,1610612752,0,3758096400,0,0,0,0,536870928,0,0,0,0,0,0,17,2147483665,0,0,0,0,0,2684354576,0,0,0,0,
0,0,2147483666,16,2147483665,0,17,16,18,0,0,536870928,0,0,0,0,0,0,0,0,0,0,0,0,0,2684354576,0,0,0,0,
0,0,536870928,8,8,0,8,8,2684354576,0,0,536870928,0,0,0,0,0,0,2684354577,536870929,0,0,0,0,0,2684354576,0,0,0,0,
0,0,536870928,0,0,0,0,0,2684354576,0,0,536870930,1073741840,1073741840,1073741840,1073741840,1073741840,1073741840,2684354578,536870930,1073741840,536870929,0,2684354577,1073741840,2684354578,0,0,0,0,
0,0,536870928,0,0,0,0,0,2684354576,0,0,16,16,16,16,16,16,16,16,18,2147483666,2147483665,0,17,16,16,16,18,0,0,
0,0,536870928,0,0,0,0,0,17,16,16,8,8,8,8,8,8,8,8,2684354576,536870928,8,0,8,8,8,8,2684354576,0,0,
0,0,536870928,0,0,0,0,0,8,8,8,0,0,0,0,0,0,0,0,2684354576,536870928,0,0,0,0,0,0,2684354576,0,0,
0,0,536870928,0,0,0,0,0,0,0,0,0,0,0,0,0,0,0,0,2684354576,536870928,0,0,0,0,0,0,2684354576,0,0,
0,0,536870928,0,0,0,0,0,0,0,0,0,0,0,0,0,0,0,0,2684354576,536870928,0,0,0,0,0,0,2684354576,0,0,
0,0,536870928,0,0,0,0,0,2684354577,1073741840,536870929,0,0,0,0,0,0,0,0,2684354576,536870928,0,0,0,0,0,0,2684354576,0,0,
0,0,536870930,1073741840,1073741840,1073741840,1073741840,1073741840,2684354578,0,1610612752,0,0,0,0,0,0,0,0,2684354576,536870930,1073741840,1073741840,1073741840,1073741840,1073741840,1073741840,2684354578,0,0,
0,0,0,0,0,0,0,0,0,0,3221225490,1073741840,1073741840,536870929,20,20,2684354577,1073741840,1073741840,2684354578,0,0,0,0,0,0,0,0,0,0
</data>
 </layer>
 <layer id="4" name="objects" width="30" height="40">
  <data encoding="csv">
0,0,0,0,0,0,0,0,0,0,0,0,0,0,0,0,0,0,0,0,0,0,0,0,0,0,0,0,0,0,
0,0,0,0,0,0,0,0,0,0,0,0,0,0,0,0,0,0,0,0,0,0,0,0,0,0,0,0,0,0,
0,0,0,0,0,0,0,0,0,0,0,0,0,0,0,0,0,0,0,0,0,0,0,0,0,0,0,0,0,0,
0,0,0,0,0,0,0,0,0,0,0,0,0,0,0,0,0,0,0,0,0,0,0,0,0,0,0,0,0,0,
0,0,0,0,0,0,0,0,0,0,0,0,0,0,0,0,0,0,0,0,0,0,0,0,0,0,0,0,0,0,
0,0,0,0,0,0,0,0,0,0,0,0,0,0,0,0,0,0,0,0,0,0,0,0,0,0,0,0,0,0,
0,0,0,0,0,0,0,0,0,0,0,0,0,0,0,0,0,0,0,0,0,0,0,0,0,0,0,0,0,0,
0,0,0,0,0,0,0,0,0,0,0,0,0,0,0,0,0,0,0,0,0,0,0,0,0,0,0,0,0,0,
0,0,0,0,0,0,0,0,0,0,0,0,0,0,0,0,0,0,0,0,0,0,0,0,0,0,0,0,0,0,
0,0,0,0,0,0,0,0,0,0,0,0,0,0,0,0,0,0,0,0,0,0,0,0,0,0,0,0,0,0,
0,0,0,0,0,0,0,0,0,0,0,0,0,0,0,0,0,0,0,0,0,0,0,0,0,0,0,0,0,0,
0,0,0,0,0,0,0,0,0,0,0,0,0,0,0,0,0,0,0,0,0,0,0,0,0,0,0,0,0,0,
0,0,0,0,0,0,0,0,0,0,0,0,0,0,0,0,0,0,0,0,0,0,0,0,0,0,0,0,0,0,
0,0,0,0,0,0,0,0,0,0,0,0,0,0,0,0,0,0,0,0,0,0,0,0,0,0,0,0,0,0,
0,0,0,0,0,0,0,0,0,0,0,0,0,0,0,0,0,0,0,0,0,0,0,0,0,0,0,0,0,0,
0,0,0,0,0,0,0,0,0,0,0,0,0,0,0,0,0,0,0,0,0,0,0,0,0,0,0,0,0,0,
0,0,0,0,0,0,0,0,0,0,0,0,0,0,0,0,0,0,0,0,0,0,0,0,0,0,0,0,0,0,
0,0,0,0,0,0,0,0,0,0,0,0,0,0,0,0,0,0,0,0,0,0,0,0,0,0,0,0,0,0,
0,0,0,0,0,0,0,0,0,0,0,0,0,0,0,0,0,0,0,0,0,0,0,0,0,0,0,0,0,0,
0,0,0,0,0,0,0,0,0,0,0,0,0,0,0,0,0,0,0,0,0,0,0,0,0,0,0,0,0,0,
0,0,0,0,0,0,0,0,0,0,0,0,0,0,0,0,0,0,0,0,0,0,0,0,0,0,0,0,0,0,
0,0,0,0,0,0,0,0,0,0,0,0,0,0,0,0,0,0,0,0,0,0,0,0,0,0,0,0,0,0,
0,0,0,0,0,0,0,0,0,0,0,0,0,0,0,0,0,0,0,0,0,0,0,0,0,0,0,0,0,0,
0,0,0,0,0,0,0,0,0,0,0,0,0,0,0,0,0,0,0,0,0,0,0,0,0,0,0,0,0,0,
0,0,0,0,0,0,0,0,0,0,0,0,0,0,0,0,0,0,0,0,0,0,0,0,0,0,0,0,0,0,
0,0,0,0,0,0,0,0,0,0,0,0,0,0,0,0,0,0,0,0,0,0,0,0,0,0,0,0,0,0,
0,0,0,0,0,0,0,0,0,0,0,0,0,0,0,0,0,0,0,0,0,0,0,0,0,0,0,0,0,0,
0,0,0,0,0,0,0,0,0,0,0,0,0,0,0,0,0,0,0,0,0,0,0,0,0,0,0,0,0,0,
0,0,0,0,0,0,0,0,0,0,0,0,0,0,0,0,0,0,0,0,0,0,0,0,0,0,0,0,0,0,
0,0,0,0,0,0,0,0,0,0,0,0,0,0,0,0,0,0,0,0,0,0,0,0,0,0,0,0,0,0,
0,0,0,0,0,0,0,0,0,0,0,0,0,0,0,0,0,0,0,0,0,0,0,0,0,0,0,0,0,0,
0,0,0,0,0,0,0,0,0,0,0,0,0,0,0,0,0,0,0,0,0,0,0,0,0,0,0,0,0,0,
0,0,0,0,0,0,0,0,0,0,0,0,0,0,0,0,0,0,0,0,0,0,0,0,0,0,0,0,0,0,
0,0,0,0,0,0,0,0,0,0,0,0,0,0,0,0,0,0,0,0,0,0,0,0,0,0,0,0,0,0,
0,0,0,0,0,0,0,0,0,0,0,0,0,0,0,0,0,0,0,0,0,0,0,0,0,0,0,0,0,0,
0,0,0,0,0,0,0,0,0,0,0,0,0,0,0,0,0,0,0,0,0,0,0,0,0,0,0,0,0,0,
0,0,0,0,0,0,0,0,0,0,0,0,0,0,0,0,0,0,0,0,0,0,0,0,0,0,0,0,0,0,
0,0,0,0,0,0,0,0,0,0,0,0,0,0,0,0,0,0,0,0,0,0,0,0,0,0,0,0,0,0,
0,0,0,0,0,0,0,0,0,0,0,0,0,0,0,0,0,0,0,0,0,0,0,0,0,0,0,0,0,0,
0,0,0,0,0,0,0,0,0,0,0,0,0,0,0,0,0,0,0,0,0,0,0,0,0,0,0,0,0,0
</data>
 </layer>
</map>
