<?xml version="1.0" encoding="UTF-8"?>
<map version="1.10" tiledversion="1.12.2" orientation="orthogonal" renderorder="right-down" width="30" height="60" tilewidth="24" tileheight="24" infinite="0" nextlayerid="5" nextobjectid="1">
 <editorsettings>
  <export target="medical_inside_tileset.tmj" format="json"/>
 </editorsettings>
 <tileset firstgid="1" name="medical_inside_tileset" tilewidth="24" tileheight="24" tilecount="56" columns="8">
  <image source="medical_inside_tileset.png" width="192" height="168"/>
 </tileset>
 <layer id="2" name="floor" width="30" height="60" visible="0">
  <data encoding="csv">
0,0,0,0,0,0,0,0,0,0,0,0,0,0,0,0,0,0,0,0,0,0,0,0,0,0,0,0,0,0,
0,0,0,0,0,0,0,0,0,0,0,0,0,0,0,0,0,0,0,0,0,0,0,0,0,0,0,0,0,0,
0,0,0,0,0,0,0,0,0,0,0,0,0,0,0,0,0,0,0,0,0,0,0,0,0,0,0,0,0,0,
0,0,0,20,20,20,20,20,20,20,20,20,20,20,20,20,20,20,20,20,20,20,20,20,20,20,20,20,20,0,
0,0,0,20,20,20,20,20,20,20,20,20,20,20,20,20,20,20,20,20,20,20,20,20,20,20,20,20,20,0,
0,0,0,1073741829,0,0,0,0,0,1073741829,0,0,0,0,0,1073741829,0,0,0,0,20,20,20,20,20,20,20,20,20,0,
0,0,0,5,0,0,0,0,0,5,0,0,0,0,0,5,0,0,0,0,20,20,20,20,20,20,20,20,20,0,
0,0,0,18,0,0,0,0,0,5,0,0,0,0,0,18,0,0,0,0,20,20,20,20,20,20,20,20,20,0,
0,0,0,18,0,0,0,0,0,5,0,0,0,0,0,18,0,0,0,0,20,20,20,20,20,20,20,20,20,0,
0,0,0,1073741829,0,0,0,0,0,5,0,0,0,0,0,1073741829,0,0,0,0,20,20,20,20,20,20,20,20,20,0,
0,0,0,5,0,0,0,0,0,5,0,0,0,0,0,5,0,0,0,0,20,20,20,20,20,20,20,20,20,0,
0,20,20,20,20,0,0,0,0,5,0,0,0,0,20,20,20,20,0,0,0,0,0,0,0,13,2147483661,0,0,0,
0,20,20,20,20,0,0,0,0,5,0,0,0,0,20,20,20,20,0,0,0,0,0,0,0,13,2147483661,0,0,0,
0,20,20,20,20,0,0,0,0,5,0,0,0,0,20,20,20,20,0,0,0,0,0,0,0,13,2147483661,0,0,0,
0,0,0,0,0,0,0,0,0,5,0,0,0,0,0,0,0,0,0,0,0,0,0,0,0,13,2147483661,0,0,0,
0,0,0,0,0,0,0,18,18,18,18,18,0,0,0,0,0,0,0,0,0,3221225493,20,21,18,18,18,18,18,0,
0,0,0,0,0,0,0,18,18,18,18,18,0,0,0,0,0,0,0,0,0,18,2684354581,18,18,18,18,18,18,0,
0,0,0,0,0,0,0,18,18,18,18,18,0,0,0,0,0,0,0,0,0,18,18,18,18,18,18,18,18,0,
0,0,0,0,0,0,0,1073741829,0,0,0,0,0,0,0,0,0,0,0,0,0,18,18,18,18,18,18,18,18,0,
0,0,0,0,0,0,0,5,0,0,0,0,0,0,0,0,0,0,0,0,0,0,0,0,0,0,1073741829,0,0,0,
0,0,0,0,0,0,0,18,0,0,0,0,0,0,0,0,0,0,0,0,0,0,0,0,0,0,5,0,0,0,
0,0,0,0,0,0,0,18,0,0,0,0,0,0,0,0,0,0,0,0,0,0,0,0,0,0,18,0,0,0,
0,0,0,0,0,0,0,1073741829,0,0,0,18,18,18,18,18,18,18,18,18,18,18,0,0,0,0,1073741829,0,0,0,
0,0,0,0,0,0,0,5,0,0,0,18,18,18,18,18,18,18,18,18,18,18,0,0,0,0,5,0,0,0,
0,0,0,18,18,18,18,18,18,18,18,18,18,18,18,18,18,18,18,18,18,18,3221225493,20,21,18,18,0,0,0,
0,0,0,1073741829,0,0,0,0,0,0,18,18,18,18,18,18,18,18,18,18,18,18,0,0,0,0,0,0,0,0,
0,0,0,5,0,0,0,0,0,0,18,18,18,18,18,18,18,18,18,18,18,18,0,0,0,0,0,0,0,0,
0,0,0,18,0,0,0,0,0,0,18,18,18,18,18,18,18,18,18,18,18,18,0,0,0,0,0,0,0,0,
0,0,0,18,0,0,0,0,0,0,18,18,18,18,18,18,18,18,18,18,18,18,0,0,0,0,0,0,0,0,
0,0,0,1073741829,0,0,0,0,0,0,0,13,2147483661,0,0,0,0,0,0,0,0,0,0,0,0,0,0,0,0,0,
0,0,0,5,0,0,0,0,0,0,0,13,2147483661,0,0,0,0,0,0,0,0,0,0,0,0,0,0,0,0,0,
0,0,0,5,0,0,0,0,0,0,0,13,2147483661,0,0,0,0,0,0,0,0,0,0,0,0,0,0,0,0,0,
0,18,18,18,18,18,0,0,0,18,18,18,18,18,18,18,0,0,0,0,0,0,0,0,0,0,0,0,0,0,
0,18,18,18,18,18,0,0,0,18,18,18,18,18,18,18,0,0,0,0,0,0,0,0,0,0,0,0,0,0,
0,18,18,18,18,18,0,0,0,18,18,18,18,18,18,18,0,0,0,18,18,18,18,18,18,18,18,18,18,0,
0,18,18,18,18,18,0,0,0,18,18,18,18,18,18,18,3221225493,20,21,18,18,18,18,18,18,18,18,18,18,0,
0,18,18,18,18,18,0,0,0,18,18,18,18,18,18,18,0,0,0,18,18,18,18,18,18,18,18,18,18,0,
0,18,18,18,18,18,0,0,0,18,18,18,18,18,18,18,0,0,0,18,18,18,18,18,18,18,18,18,18,0,
0,5,0,0,0,0,0,0,0,18,18,18,18,18,18,18,0,0,0,18,18,18,18,18,18,18,18,18,18,0,
0,18,0,0,0,0,0,0,0,18,18,18,18,18,18,18,0,0,0,18,18,18,18,18,18,18,18,18,18,0,
0,5,0,0,0,0,0,0,0,0,1073741829,0,0,0,0,0,0,0,0,18,18,18,18,18,18,18,18,18,18,0,
0,18,18,18,18,18,18,0,0,0,5,0,0,0,0,0,0,0,0,1073741829,0,0,0,0,0,0,0,0,0,0,
0,18,18,18,18,18,18,0,0,0,5,0,0,0,0,0,0,0,0,5,0,0,0,0,0,0,0,0,0,0,
0,18,18,18,18,18,18,18,18,18,18,0,0,0,0,0,0,0,0,18,0,0,0,0,0,0,0,0,0,0,
0,18,18,18,18,18,18,18,18,18,18,0,0,0,0,0,0,0,0,1073741829,0,0,0,0,0,0,0,0,0,0,
0,18,18,18,18,18,18,18,18,18,18,0,0,0,0,0,0,0,0,5,0,0,0,20,20,20,20,20,20,0,
0,18,18,18,18,18,18,18,18,18,18,0,0,0,0,0,0,0,0,18,18,20,21,20,20,20,20,20,20,0,
0,0,0,0,0,0,0,0,0,13,2147483661,0,0,0,0,0,0,0,0,0,0,0,0,20,20,20,20,20,20,0,
0,0,0,0,0,0,0,0,0,13,2147483661,0,0,0,0,0,0,0,0,0,0,0,0,0,0,0,0,5,0,0,
0,0,0,0,0,0,0,0,0,13,2147483661,0,0,0,0,0,0,0,0,0,0,0,0,0,0,0,0,18,0,0,
0,0,0,0,0,0,0,0,0,13,2147483661,0,0,0,0,0,0,0,0,0,0,0,0,0,0,0,0,5,0,0,
0,0,0,0,0,0,0,18,18,18,18,18,18,18,18,0,0,0,0,20,20,20,20,20,20,20,20,20,20,0,
0,0,0,0,0,0,0,18,18,18,18,18,18,18,18,18,18,18,18,20,20,20,20,20,20,20,20,20,20,0,
0,0,0,3221225493,20,21,18,18,18,18,18,18,18,18,18,0,0,0,0,20,20,20,20,20,20,20,20,20,20,0,
0,0,0,1073741829,0,0,0,0,18,18,18,18,18,18,18,0,0,0,0,20,20,20,20,20,20,20,20,20,20,0,
0,0,0,5,0,0,0,0,0,0,0,0,0,0,0,0,0,0,0,20,20,20,20,20,20,20,20,20,20,0,
0,0,0,5,0,0,0,0,0,0,0,0,0,0,0,0,0,0,0,20,20,20,20,20,20,20,20,20,20,0,
0,0,20,20,20,20,0,0,0,0,0,0,0,0,0,0,0,0,0,20,20,20,20,20,20,20,20,20,20,0,
0,0,20,20,20,20,0,0,0,0,0,0,0,0,0,0,0,0,0,20,20,20,20,20,20,20,20,20,20,0,
0,0,0,0,0,0,0,0,0,0,0,0,0,0,0,0,0,0,0,0,0,0,0,13,2147483661,0,0,0,0,0
</data>
 </layer>
 <layer id="1" name="walls" width="30" height="60" visible="0">
  <data encoding="csv">
0,0,0,0,0,0,0,0,0,0,0,0,0,0,0,0,0,0,0,0,0,0,0,0,0,0,0,0,0,0,
0,0,2147483650,6,1,4,1,6,6,1,4,6,6,6,6,4,6,1,6,6,4,6,6,1,6,4,6,1,1,2,
0,0,1610612743,9,9,12,9,9,10,9,12,9,9,9,9,12,9,9,9,9,12,9,9,9,9,12,9,10,9,2684354567,
0,0,536870920,0,0,0,0,0,0,0,0,0,0,0,0,0,0,0,0,0,0,0,0,0,0,0,0,0,0,3758096391,
0,0,536870919,0,0,0,0,0,0,0,0,0,0,0,0,0,0,0,0,0,0,0,0,0,0,0,0,0,0,3758096392,
0,0,536870920,0,3221225475,3221225480,3221225479,3221225479,1073741827,0,3221225475,3221225480,3221225479,3221225480,1073741827,0,3221225475,3221225479,3221225480,1610612739,0,0,0,0,0,0,0,0,0,3758096392,
0,0,536870919,0,3758096392,0,0,0,536870919,0,3758096391,0,0,0,536870920,0,3758096392,0,0,536870919,0,0,0,0,0,0,0,0,0,3758096392,
0,0,536870920,0,3758096392,0,0,0,536870920,0,3758096391,0,0,0,536870920,0,3758096391,0,0,536870920,0,0,0,0,0,0,0,0,0,3758096391,
0,0,536870920,0,3758096392,0,0,0,536870919,0,3758096392,0,0,0,536870919,0,3758096391,0,0,536870919,0,0,0,0,0,0,0,0,0,3758096391,
2147483650,4,41,0,2147483689,2,0,0,536870919,0,3758096391,0,0,2147483650,41,0,2147483689,4,2,536870920,0,0,0,0,0,0,0,0,0,3758096392,
1610612743,12,49,0,2147483697,3758096392,0,0,536870919,0,3758096391,0,0,1610612744,49,0,2147483697,12,2684354567,536870920,0,0,0,0,0,0,0,0,0,3758096391,
536870919,0,0,0,0,3758096392,0,0,536870919,0,3758096392,0,0,1610612743,0,0,0,0,3758096391,536870927,3221225480,3221225480,3221225480,3221225480,1073741827,0,0,3221225475,3221225480,2684354575,
536870919,0,0,0,0,3758096391,0,0,536870919,0,3758096391,0,0,1610612744,0,0,0,0,3758096392,0,0,0,0,0,1610612743,0,0,3758096392,0,0,
536870919,0,0,0,0,3758096392,2147483650,6,41,0,2147483689,1,2,1610612743,0,0,0,0,3758096392,0,2147483650,6,4,1,41,0,0,2147483689,1,2,
536870927,1073741832,1073741832,1073741831,1073741832,2684354575,536870920,10,49,0,2147483697,9,2684354567,536870927,1073741832,1073741831,1073741832,1073741831,2684354575,0,536870920,9,12,9,49,0,0,2147483697,9,2684354567,
0,0,0,0,0,0,536870919,0,0,0,0,0,3758096391,0,0,0,0,0,0,0,536870919,0,0,0,0,0,0,0,0,3758096392,
0,0,0,0,0,0,536870920,0,0,0,0,0,3758096391,0,0,0,0,0,0,0,536870920,0,0,0,0,0,0,0,0,3758096392,
0,0,0,0,0,0,536870920,0,0,0,0,0,3758096391,0,0,0,0,0,0,0,536870920,0,0,0,0,0,0,0,0,3758096392,
0,0,0,0,0,0,1610612743,0,3221225475,1073741831,1073741831,1073741832,2684354575,0,0,0,0,0,0,0,536870920,0,0,0,0,0,0,0,0,3758096392,
0,0,0,0,0,0,1610612744,0,3758096391,0,0,0,0,0,0,0,0,0,0,0,3221225487,1073741831,1073741832,1073741831,1073741832,1073741827,0,3221225475,1073741831,1073741839,
0,0,0,0,0,0,1610612744,0,3758096391,0,2147483650,1,1,1,6,6,1,6,1,6,6,6,2,0,0,536870920,0,2684354568,0,0,
0,0,0,0,0,0,1610612744,0,3758096391,0,1610612744,9,9,9,9,9,10,9,9,9,9,9,2684354568,0,0,536870919,0,2684354568,0,0,
0,0,2147483650,1,6,6,14,0,2147483662,1,41,0,0,0,0,0,0,0,0,0,0,0,2147483689,4,1,41,0,2684354568,0,0,
0,0,536870920,9,9,9,9,0,9,9,49,0,0,0,0,0,0,0,0,0,0,0,2147483697,12,9,49,0,2684354568,0,0,
0,0,536870920,0,0,0,0,0,0,0,0,0,0,0,0,0,0,0,0,0,0,0,0,0,0,0,0,3758096391,0,0,
0,0,536870920,0,3221225475,1073741831,1073741831,1073741831,1073741831,1610612739,0,0,0,0,0,0,0,0,0,0,0,0,3221225475,1073741831,1073741831,1073741831,1073741831,2684354575,0,0,
0,0,536870919,0,2684354567,0,0,0,0,536870920,0,0,0,0,0,0,0,0,0,0,0,0,3758096392,0,0,0,0,0,0,0,
0,0,536870920,0,2684354568,0,0,0,0,536870920,0,0,0,0,0,0,0,0,0,0,0,0,3758096391,0,0,0,0,0,0,0,
0,0,536870919,0,2684354567,0,0,0,0,536870920,0,0,0,0,0,0,0,0,0,0,0,0,3758096392,0,0,0,0,0,0,0,
0,0,536870919,0,2684354567,0,0,0,0,536870927,1610612739,0,0,3221225475,1073741831,1073741831,1073741831,1073741832,1073741832,1073741831,1073741831,1073741832,2684354575,0,0,0,0,0,0,0,
2147483650,1,41,0,2147483689,1,2,0,2147483650,1,41,0,0,2147483689,6,1,2,0,0,0,0,0,0,0,0,0,0,0,0,0,
536870920,10,49,0,2147483697,9,2684354568,0,1610612744,9,49,0,0,2147483697,11,9,3758096392,0,0,0,0,0,0,0,0,0,0,0,0,0,
536870920,0,0,0,0,0,2684354567,0,1610612744,0,0,0,0,0,0,0,3758096392,0,2147483650,1,6,1,6,1,1,1,1,1,1,2,
536870919,0,0,0,0,0,2684354567,0,1610612743,0,0,0,0,0,0,0,2147483689,4,41,9,9,9,11,9,9,9,9,9,9,2684354568,
536870919,0,0,0,0,0,2684354567,0,1610612744,0,0,0,0,0,0,0,2147483697,12,49,0,0,0,0,0,0,0,0,0,0,3758096392,
536870920,0,0,0,0,0,2684354567,0,1610612744,0,0,0,0,0,0,0,0,0,0,0,0,0,0,0,0,0,0,0,0,3758096391,
536870920,0,0,0,0,0,2684354568,0,1610612744,0,0,0,0,0,0,0,3221225475,1073741832,1610612739,0,0,0,0,0,0,0,0,0,0,3758096391,
536870919,0,0,0,0,0,2684354567,0,1610612743,0,0,0,0,0,0,0,3758096392,0,1610612744,0,0,0,0,0,0,0,0,0,0,3758096391,
536870919,0,3221225475,3221225480,3221225480,3221225480,2684354575,0,1610612743,0,0,0,0,0,0,0,3758096392,0,1610612744,0,0,0,0,0,0,0,0,0,0,3758096391,
536870919,0,2147483689,1,6,6,6,2,1610612743,0,0,0,0,0,0,0,3758096392,0,1610612744,0,0,0,0,0,0,0,0,0,0,3758096391,
536870919,0,2147483697,11,9,9,9,2684354568,3221225487,1610612739,0,3221225475,1073741832,1073741832,1073741832,1073741832,2684354575,0,1610612744,0,0,0,0,0,0,0,0,0,0,3758096391,
536870920,0,0,0,0,0,0,2147483662,1,41,0,2684354568,0,0,0,0,0,0,1610612744,0,3221225475,1073741832,1073741832,1073741832,1073741831,1073741831,1073741831,1073741831,1073741832,2684354575,
536870919,0,0,0,0,0,0,9,9,49,0,2684354568,0,0,0,0,0,0,1610612744,0,3758096392,0,0,0,0,0,0,0,0,0,
536870919,0,0,0,0,0,0,0,0,0,0,2684354567,0,0,0,0,0,0,1610612744,0,2684354568,0,2147483650,6,4,6,6,4,6,2,
536870919,0,0,0,0,0,0,0,0,0,0,2684354567,0,0,0,0,0,0,1610612744,0,2147483689,4,41,9,12,9,9,12,9,2684354567,
536870920,0,0,0,0,0,0,0,0,0,0,2684354567,0,0,0,0,0,0,1610612744,0,2147483697,12,49,0,0,0,0,0,0,2684354568,
536870919,0,0,0,0,0,0,0,0,0,0,2684354567,0,0,0,0,0,0,1610612744,0,0,0,0,0,0,0,0,0,0,2684354567,
3221225487,1073741831,1073741832,1073741831,1073741832,1073741832,1073741831,1073741832,1610612739,0,0,2684354567,0,0,0,0,0,0,536870927,3221225480,3221225480,3221225479,1610612739,0,0,0,0,0,0,2684354568,
0,0,0,0,0,0,0,0,536870919,0,0,2684354568,0,0,0,0,0,0,0,0,0,0,3221225487,3221225480,3221225479,3221225480,1610612739,0,3758096387,2684354575,
0,0,0,0,0,0,2147483650,1,41,0,0,2147483689,6,6,1,2,0,0,2147483650,1,4,6,6,6,4,1,41,0,2147483689,2,
0,0,0,0,0,0,1610612744,9,49,0,0,2147483697,9,9,9,2147483689,6,6,41,9,12,9,10,9,12,9,49,0,2147483697,3758096392,
0,0,2147483650,1,4,1,41,0,0,0,0,0,0,0,0,2147483697,9,9,49,0,0,0,0,0,0,0,0,0,0,3758096391,
0,0,1610612744,9,12,9,49,0,0,0,0,0,0,0,0,0,0,0,0,0,0,0,0,0,0,0,0,0,0,3758096391,
0,0,1610612743,0,0,0,0,0,0,0,0,0,0,0,0,3758096387,1073741832,1073741832,1610612739,0,0,0,0,0,0,0,0,0,0,3758096392,
0,0,1610612743,0,3221225475,1073741832,1073741832,1610612739,0,0,0,0,0,0,0,2684354568,0,0,536870919,0,0,0,0,0,0,0,0,0,0,3758096392,
0,2147483650,41,0,2147483689,4,2,3221225487,1073741831,1073741832,1073741832,1073741831,1073741831,1073741832,1073741832,1073741839,0,0,536870919,0,0,0,0,0,0,0,0,0,0,3758096391,
0,1610612744,49,0,2147483697,12,3758096391,0,0,0,0,0,0,0,0,0,0,0,536870920,0,0,0,0,0,0,0,0,0,0,3758096392,
0,536870919,0,0,0,0,3758096391,0,0,0,0,0,0,0,0,0,0,0,536870920,0,0,0,0,0,0,0,0,0,0,3758096392,
0,536870919,0,0,0,0,3758096391,0,0,0,0,0,0,0,0,0,0,0,536870920,0,0,0,0,0,0,0,0,0,0,3758096391,
0,3221225487,1073741832,1073741831,1073741831,1073741832,1073741839,0,0,0,0,0,0,0,0,0,0,0,3221225487,1073741831,1073741831,1073741831,1073741827,0,0,3221225475,1073741831,1073741832,1073741832,1073741839
</data>
 </layer>
 <layer id="3" name="objects" width="30" height="60" visible="0">
  <data encoding="csv">
0,0,0,0,0,0,0,0,0,0,0,0,0,0,0,0,0,0,0,0,0,0,0,0,0,0,0,0,0,0,
0,0,0,0,0,0,0,0,0,0,0,0,0,0,0,0,0,0,0,0,0,0,0,0,0,0,0,0,0,0,
0,0,0,0,0,0,0,0,0,0,0,0,0,0,0,0,0,0,0,0,0,0,25,26,0,0,0,27,24,0,
0,0,0,0,0,28,29,0,0,0,0,0,0,0,0,0,36,37,0,0,0,0,33,34,0,0,0,35,32,0,
0,0,0,0,0,0,0,0,0,0,0,28,29,0,0,0,0,0,0,0,0,0,0,0,0,0,0,0,0,0,
0,0,0,0,0,0,0,0,0,0,0,0,0,0,0,0,0,0,0,0,22,0,0,0,0,0,0,0,0,0,
0,0,0,0,0,0,0,0,0,0,0,0,0,0,0,0,0,0,0,0,30,0,0,28,29,0,0,0,0,0,
0,0,0,0,0,0,0,0,0,0,0,0,0,0,0,0,0,0,0,0,36,37,0,36,37,0,0,0,0,0,
0,0,0,0,0,0,0,0,0,0,0,0,0,0,0,0,0,0,0,0,23,0,0,28,29,0,0,0,0,0,
0,0,0,0,0,0,0,0,0,0,0,0,0,0,0,0,0,0,0,0,31,0,0,36,37,0,0,0,0,0,
0,22,0,0,0,0,0,0,0,0,0,0,0,0,43,0,0,0,0,0,36,37,0,28,29,0,0,0,0,0,
0,30,0,0,0,0,0,0,0,0,0,0,0,0,51,0,0,0,0,0,0,0,0,0,0,0,0,0,0,0,
0,28,29,0,2147483691,0,0,0,0,0,0,0,0,0,0,0,0,0,0,0,0,0,0,0,0,0,0,0,0,0,
0,0,0,0,2147483699,0,0,0,0,0,0,0,0,0,0,0,36,37,0,0,0,0,0,0,0,0,0,0,0,0,
0,0,0,0,0,0,0,0,0,0,0,0,0,0,0,0,0,0,0,0,0,0,0,0,22,0,0,0,24,0,
0,0,0,0,0,0,0,0,0,0,0,23,0,0,0,0,0,0,0,0,0,0,0,0,30,0,0,0,32,0,
0,0,0,0,0,0,0,0,0,0,0,31,0,0,0,0,0,0,0,0,0,23,0,0,0,0,0,0,0,0,
0,0,0,0,0,0,0,0,0,0,36,37,0,0,0,0,0,0,0,0,0,31,0,0,0,0,0,0,0,0,
0,0,0,0,0,0,0,0,0,0,0,0,0,0,0,0,0,0,0,0,0,28,29,0,0,0,0,0,0,0,
0,0,0,0,0,0,0,0,0,0,0,0,0,0,0,0,0,0,0,0,0,0,0,0,0,0,0,0,0,0,
0,0,0,0,0,0,0,0,0,0,0,0,0,0,0,0,0,0,0,0,0,0,0,0,0,0,0,0,0,0,
0,0,0,0,0,0,0,0,0,0,0,0,0,0,44,22,0,0,0,0,23,0,0,0,0,0,0,0,0,0,
0,0,0,0,0,0,0,0,0,0,0,0,0,0,52,30,28,29,36,37,31,0,0,0,0,0,0,0,0,0,
0,0,0,0,0,0,0,0,0,0,0,0,0,0,0,0,0,0,36,37,0,0,0,0,0,0,0,0,0,0,
0,0,0,0,0,0,0,0,0,0,0,0,0,0,0,0,0,0,0,0,0,0,0,0,0,0,0,0,0,0,
0,0,0,0,0,0,0,0,0,0,0,0,0,0,0,0,0,0,0,0,0,0,0,0,0,0,0,0,0,0,
0,0,0,0,0,0,0,0,0,0,0,0,0,0,0,0,0,0,0,0,0,0,0,0,0,0,0,0,0,0,
0,0,0,0,0,0,0,0,0,0,0,0,0,0,28,29,0,0,0,0,0,0,0,0,0,0,0,0,0,0,
0,0,0,0,0,0,0,0,0,0,0,0,0,36,37,0,0,0,0,0,0,0,0,0,0,0,0,0,0,0,
0,0,0,0,0,0,0,0,0,0,0,0,0,0,0,0,0,0,0,0,0,0,0,0,0,0,0,0,0,0,
0,0,0,0,0,0,0,0,0,0,0,0,0,0,0,0,0,0,0,0,0,0,0,0,0,0,0,0,0,0,
0,0,0,0,0,0,0,0,0,0,0,0,0,0,0,0,0,0,0,0,0,0,0,0,0,0,0,0,0,0,
0,0,0,0,0,0,0,0,0,0,0,0,0,0,0,0,0,0,0,0,0,0,0,0,0,0,0,0,0,0,
0,0,0,0,0,0,0,0,0,0,0,0,0,0,0,0,0,0,0,0,0,0,0,0,0,0,0,0,0,0,
0,0,0,0,0,0,0,0,0,23,22,0,0,0,0,0,0,0,0,0,0,0,0,0,0,0,0,0,0,0,
0,0,0,0,28,29,0,0,0,31,30,0,0,0,0,0,0,0,0,0,28,29,36,37,36,37,28,29,0,0,
0,0,0,0,0,0,0,0,0,28,29,0,0,0,0,0,0,0,0,0,28,29,0,0,0,0,36,37,0,0,
0,0,0,0,0,0,0,0,0,0,0,0,0,0,0,0,0,0,0,0,36,37,0,0,28,29,28,29,0,0,
0,0,0,0,0,0,0,0,0,0,0,0,0,0,0,0,0,0,0,0,36,37,0,0,36,37,28,29,0,0,
0,0,0,0,0,0,0,0,0,0,0,0,0,0,0,0,0,0,0,0,28,29,0,0,0,0,0,0,0,0,
0,0,0,0,0,23,24,0,0,0,0,0,0,0,0,0,0,0,0,0,28,29,36,37,36,37,28,29,0,0,
0,0,0,28,29,31,32,0,0,0,0,0,0,0,0,0,0,0,0,0,0,0,0,0,0,0,0,0,0,0,
0,0,0,0,0,0,0,0,0,0,0,0,0,0,0,0,0,0,0,0,0,0,0,0,0,0,0,0,0,0,
0,0,0,0,0,0,0,0,0,0,0,0,0,0,0,0,0,0,0,0,0,0,0,0,0,0,0,0,0,0,
0,23,0,0,0,0,0,0,0,0,0,0,0,0,0,0,0,0,0,0,0,0,0,0,0,0,0,0,0,0,
0,31,0,0,0,0,0,0,0,0,0,0,0,0,0,0,0,0,0,0,0,0,0,0,0,28,29,0,0,0,
0,36,37,0,0,0,0,0,0,0,0,0,0,0,0,0,0,0,0,0,0,0,0,0,0,0,0,0,0,0,
0,0,0,0,0,0,0,0,0,0,0,0,0,0,0,0,0,0,0,0,0,0,0,36,37,0,0,0,0,0,
0,0,0,0,0,0,0,0,0,0,0,0,0,0,0,0,0,0,0,0,0,0,0,0,0,0,0,0,0,0,
0,0,0,0,0,0,0,0,0,0,0,0,0,0,0,0,0,0,0,0,0,0,0,0,0,0,0,0,0,0,
0,0,0,0,0,0,0,0,24,0,0,0,23,0,0,0,0,0,0,0,0,0,0,0,27,25,26,0,0,0,
0,0,0,0,0,0,0,0,32,0,0,0,31,28,29,0,0,0,0,0,0,0,0,0,35,33,34,0,0,0,
0,0,0,0,0,0,0,0,0,0,0,0,0,0,0,0,0,0,0,0,0,0,0,0,0,0,0,0,0,0,
0,0,0,0,0,0,0,0,0,0,0,0,0,0,0,0,0,0,0,23,0,0,0,0,0,0,0,0,22,0,
0,0,0,0,0,0,0,0,0,0,36,37,0,0,0,0,0,0,0,31,0,0,0,0,0,0,0,0,30,0,
0,0,0,0,0,0,0,0,0,0,0,0,0,0,0,0,0,0,0,28,29,0,0,0,0,0,0,2147483677,2147483676,0,
0,0,23,0,0,0,0,0,0,0,0,0,0,0,0,0,0,0,0,28,29,0,0,0,0,0,0,0,0,0,
0,0,31,0,0,0,0,0,0,0,0,0,0,0,0,0,0,0,0,0,36,37,0,0,0,0,0,2147483685,2147483684,0,
0,0,36,37,0,0,0,0,0,0,0,0,0,0,0,0,0,0,0,36,37,0,0,0,0,0,0,0,0,0,
0,0,0,0,0,0,0,0,0,0,0,0,0,0,0,0,0,0,0,0,0,0,0,0,0,0,0,0,0,0
</data>
 </layer>
 <layer id="4" name="debris" width="30" height="60" visible="0">
  <data encoding="csv">
0,0,0,0,0,0,0,0,0,0,0,0,0,0,0,0,0,0,0,0,0,0,0,0,0,0,0,0,0,0,
0,0,0,0,0,0,0,0,0,0,0,0,0,0,0,0,0,0,0,0,0,0,0,0,0,0,0,0,0,0,
0,0,0,0,0,0,0,0,0,0,0,0,0,0,0,0,0,0,0,0,0,0,0,0,0,0,0,0,0,0,
0,0,0,0,39,0,0,0,0,0,0,0,0,0,0,38,0,0,0,0,0,0,0,0,40,0,0,0,0,0,
0,0,0,0,0,0,0,0,0,0,0,0,0,0,0,0,0,0,0,0,0,0,0,0,0,0,0,0,0,0,
0,0,0,0,0,0,0,0,0,0,0,0,0,0,0,0,0,0,0,0,0,0,0,0,0,0,0,0,0,0,
0,0,0,0,0,0,0,0,0,0,0,0,0,0,0,0,0,0,0,0,0,0,0,0,0,0,38,0,0,0,
0,0,0,0,0,0,0,0,0,0,0,0,0,0,0,0,0,0,0,0,0,0,0,0,0,0,0,0,0,0,
0,0,0,0,0,0,0,0,0,0,0,0,0,0,0,0,0,0,0,0,0,0,0,0,0,0,0,0,0,0,
0,0,0,0,0,0,0,0,0,0,0,0,0,0,0,0,0,0,0,0,0,0,0,0,0,0,0,0,0,0,
0,0,0,0,0,0,0,0,0,0,0,0,0,0,0,0,0,0,0,0,0,0,0,0,0,0,0,0,39,0,
0,0,0,0,0,0,0,0,0,0,0,0,0,0,0,0,0,39,0,0,0,0,0,0,0,0,0,0,0,0,
0,0,0,0,0,0,0,0,0,0,0,0,0,0,0,0,0,0,0,0,0,0,0,0,0,0,0,0,0,0,
0,0,0,0,0,0,0,0,0,0,0,0,0,0,0,0,0,0,0,0,0,0,0,0,0,0,0,0,0,0,
0,0,0,0,0,0,0,0,0,0,0,0,0,0,0,0,0,0,0,0,0,0,0,0,0,0,0,0,0,0,
0,0,0,0,0,0,0,0,0,0,0,0,0,0,0,0,0,0,0,0,0,39,0,0,0,0,0,0,0,0,
0,0,0,0,0,0,0,0,38,0,0,0,0,0,0,0,0,0,0,0,0,0,0,0,0,0,0,0,0,0,
0,0,0,0,0,0,0,0,38,0,0,0,0,0,0,0,0,0,0,0,0,0,0,0,0,0,0,0,0,0,
0,0,0,0,0,0,0,0,0,0,0,0,0,0,0,0,0,0,0,0,0,0,0,0,0,0,0,2147483688,0,0,
0,0,0,0,0,0,0,0,0,0,0,0,0,0,0,0,0,0,0,0,0,0,0,0,0,0,0,0,0,0,
0,0,0,0,0,0,0,0,0,0,0,0,0,0,0,0,0,0,0,0,0,0,0,0,0,0,0,0,0,0,
0,0,0,0,0,0,0,0,0,0,0,0,0,0,0,0,0,0,0,0,0,0,0,0,0,0,0,0,0,0,
0,0,0,0,0,0,0,0,0,0,0,0,0,0,0,0,0,0,0,0,0,0,0,0,0,0,0,0,0,0,
0,0,0,0,0,0,0,0,0,0,0,0,0,0,0,0,0,0,0,0,0,0,0,0,0,0,0,0,0,0,
0,0,0,0,0,0,0,0,0,0,0,0,0,0,0,0,0,0,0,0,0,0,0,0,0,0,0,0,0,0,
0,0,0,0,0,0,0,0,0,0,0,0,0,0,0,0,0,0,0,0,0,0,0,0,0,0,0,0,0,0,
0,0,0,0,0,0,0,0,0,0,39,0,0,0,0,0,0,38,0,0,0,0,0,0,0,0,0,0,0,0,
0,0,0,0,0,0,0,0,0,0,0,0,0,0,0,0,0,0,0,0,0,0,0,0,0,0,0,0,0,0,
0,0,0,0,0,0,0,0,0,0,0,0,0,0,0,0,0,0,0,0,0,0,0,0,0,0,0,0,0,0,
0,0,0,0,0,0,0,0,0,0,0,0,0,0,0,0,0,0,0,0,0,0,0,0,0,0,0,0,0,0,
0,0,0,0,0,0,0,0,0,0,0,0,0,0,0,0,0,0,0,0,0,0,0,0,0,0,0,0,0,0,
0,0,0,0,0,0,0,0,0,0,0,0,0,0,0,0,0,0,0,0,0,0,0,0,0,0,0,0,0,0,
0,0,0,0,0,0,0,0,0,0,0,0,0,0,0,0,0,0,0,0,0,0,0,0,0,0,0,0,0,0,
0,38,0,0,0,0,0,0,0,0,0,0,0,0,0,0,0,0,0,0,0,0,0,0,0,0,0,0,0,0,
0,0,0,0,0,0,0,0,0,0,0,0,0,0,0,0,0,0,0,0,0,0,0,0,0,0,0,0,0,0,
0,0,0,0,0,0,0,0,0,0,0,0,0,0,0,0,0,0,0,0,0,0,0,0,0,0,0,0,0,0,
0,0,0,0,0,0,0,0,0,0,0,0,0,0,0,0,0,0,0,0,0,0,0,0,0,0,0,0,0,0,
0,0,0,40,0,0,0,0,0,0,0,0,0,0,0,0,0,0,0,0,0,0,0,38,0,0,0,0,0,0,
0,0,0,0,0,0,0,0,0,0,0,0,0,0,0,0,0,0,0,0,0,0,0,0,0,0,0,0,0,0,
0,0,0,0,0,0,0,0,0,0,0,0,0,0,0,0,0,0,0,0,0,0,0,0,0,0,0,0,0,0,
0,0,0,0,0,0,0,0,0,0,0,0,0,0,0,0,0,0,0,0,0,0,0,0,0,0,0,0,0,0,
0,0,0,0,0,0,0,0,0,0,0,0,0,0,0,0,0,0,0,0,0,0,0,0,0,0,0,0,0,0,
0,0,0,0,0,0,38,0,0,0,0,0,0,0,0,0,0,0,0,0,0,0,0,0,0,0,0,0,0,0,
0,0,0,0,0,0,0,0,0,0,0,0,0,0,0,0,0,0,0,0,0,0,0,0,0,0,0,0,0,0,
0,0,0,0,0,0,0,0,0,0,0,0,0,0,0,0,0,0,0,0,0,0,0,0,0,0,0,0,0,0,
0,0,0,0,0,0,0,0,0,0,0,0,0,0,0,0,0,0,0,0,0,0,0,0,0,0,0,0,0,0,
0,0,0,0,0,0,39,0,0,0,0,0,0,0,0,0,0,0,0,0,0,0,0,0,0,0,0,0,0,0,
0,0,0,0,0,0,0,0,0,0,0,0,0,0,0,0,0,0,0,0,0,0,0,0,0,0,0,0,0,0,
0,0,0,0,0,0,0,0,0,0,0,0,0,0,0,0,0,0,0,0,0,0,0,0,0,0,0,0,0,0,
0,0,0,0,0,0,0,0,0,0,0,0,0,0,0,0,0,0,0,0,0,0,0,0,0,0,0,0,0,0,
0,0,0,0,0,0,0,0,0,0,0,0,0,0,0,0,0,0,0,0,0,0,0,0,0,0,0,0,0,0,
0,0,0,0,0,0,0,0,0,0,0,0,0,0,0,0,0,0,0,0,0,0,0,0,0,0,0,0,0,0,
0,0,0,0,0,0,0,0,0,0,0,0,0,0,0,0,0,0,0,0,0,0,0,0,0,0,0,38,0,0,
0,0,0,0,0,0,0,0,0,0,0,0,0,0,0,0,0,0,0,0,0,0,0,0,0,0,0,0,0,0,
0,0,0,0,0,0,0,0,0,0,0,0,0,0,0,0,0,0,0,0,0,0,0,0,0,0,0,0,0,0,
0,0,0,0,0,0,0,0,0,0,0,0,0,0,0,0,0,0,0,0,0,0,39,0,0,0,0,0,0,0,
0,0,0,0,0,0,0,0,0,0,0,0,0,0,0,0,0,0,0,0,0,0,0,0,0,0,0,0,0,0,
0,0,0,0,0,0,0,0,0,0,0,0,0,0,0,0,0,0,0,0,0,0,0,0,0,0,0,0,0,0,
0,0,0,0,0,39,0,0,0,0,0,0,0,0,0,0,0,0,0,0,0,0,0,0,0,0,0,0,40,0,
0,0,0,0,0,0,0,0,0,0,0,0,0,0,0,0,0,0,0,0,0,0,0,0,0,0,0,0,0,0
</data>
 </layer>
</map>
